;FLAVOR:Marlin
;TIME:9116
;Filament used: 4.91134m
;Layer height: 0.2
;MINX:62.422
;MINY:81.15
;MINZ:0.2
;MAXX:166.4
;MAXY:155.6
;MAXZ:16.2
;Generated with Cura_SteamEngine 4.8.0
M140 S50
M105
M190 S50
M104 S200
M105
M109 S200
M82 ;absolute extrusion mode
; Ender 3 Custom Start G-code
G21        ;metric values
G90        ;absolute positioning
M82        ;set extruder to absolute mode
M107       ;start with the fan off
G28 X0 Y0  ;move X/Y to min endstops
G28 Z0     ;move Z to min endstops
G29; bed leveling
G1 Z15.0 F150.0 ;move the platform down 15mm
G92 E0                  ;zero the extruded length
G1 F200 E3              ;extrude 3mm of feed stock
G92 E0                  ;zero the extruded length again
G1 F150.0
;Put printing message on LCD screen
M117 Printing...
G92 E0
G92 E0
G1 F2700 E-5
;LAYER_COUNT:80
;LAYER:0
M107
G1 F300 Z0.4
G0 F6000 X67.251 Y83.717 Z0.4
;TYPE:SKIRT
G1 F300 Z0.2
G1 F2700 E0
G1 F1200 X67.906 Y83.27 E0.02637
G1 X68.039 Y83.186 E0.03161
G1 X68.853 Y82.719 E0.06282
G1 X69.703 Y82.324 E0.09399
G1 X70.213 Y82.127 E0.11218
G1 X70.577 Y81.997 E0.12503
G1 X71.473 Y81.719 E0.15624
G1 X72.389 Y81.519 E0.18742
G1 X73.158 Y81.413 E0.21324
G1 X73.422 Y81.386 E0.22207
G1 X74.399 Y81.33 E0.25461
G1 X75.083 Y81.322 E0.27737
G1 X91.71 Y81.321 E0.83038
G1 X94.325 Y81.284 E0.91737
G1 X96.306 Y81.207 E0.9833
G1 X97.211 Y81.162 E1.01344
G1 X97.94 Y81.15 E1.03769
G1 X99.859 Y81.182 E1.10153
G1 X101.273 Y81.219 E1.14857
G1 X101.563 Y81.23 E1.15823
G1 X102.436 Y81.276 E1.1873
G1 X105.021 Y81.374 E1.27334
G1 X107.157 Y81.399 E1.34439
G1 X153.988 Y81.401 E2.90199
G1 X154.637 Y81.41 E2.92358
G1 X155.935 Y81.505 E2.96687
G1 X156.243 Y81.546 E2.9772
G1 X157.167 Y81.709 E3.00841
G1 X158.073 Y81.951 E3.0396
G1 X158.956 Y82.268 E3.07081
G1 X159.623 Y82.567 E3.09512
G1 X159.846 Y82.676 E3.10337
G1 X160.67 Y83.124 E3.13457
G1 X161.586 Y83.737 E3.17123
G1 X161.684 Y83.81 E3.17529
G1 X162.412 Y84.402 E3.2065
G1 X163.086 Y85.054 E3.23769
G1 X163.888 Y85.998 E3.27889
G1 X164.077 Y86.248 E3.28931
G1 X164.61 Y87.02 E3.32051
G1 X165.075 Y87.834 E3.35169
G1 X165.47 Y88.685 E3.3829
G1 X165.765 Y89.486 E3.41129
G1 X165.827 Y89.677 E3.41797
G1 X166.078 Y90.58 E3.44914
G1 X166.255 Y91.53 E3.48128
G1 X166.272 Y91.65 E3.48531
G1 X166.379 Y92.989 E3.52999
G1 X166.398 Y94.014 E3.56409
G1 X166.4 Y94.218 E3.57087
G1 X166.4 Y143.151 E5.19839
G1 X166.391 Y143.816 E5.22051
G1 X166.296 Y145.119 E5.26396
G1 X166.251 Y145.457 E5.27531
G1 X166.087 Y146.38 E5.30649
G1 X165.846 Y147.287 E5.3377
G1 X165.528 Y148.169 E5.36888
G1 X165.186 Y148.924 E5.39645
G1 X165.082 Y149.132 E5.40419
G1 X164.627 Y149.953 E5.43541
G1 X164.043 Y150.813 E5.46998
G1 X163.968 Y150.913 E5.47414
G1 X163.374 Y151.639 E5.50534
G1 X162.72 Y152.311 E5.53653
G1 X161.762 Y153.117 E5.57817
G1 X161.511 Y153.305 E5.5886
G1 X160.737 Y153.835 E5.6198
G1 X159.921 Y154.297 E5.65099
G1 X159.069 Y154.687 E5.68215
G1 X158.379 Y154.942 E5.70662
G1 X158.189 Y155.005 E5.71327
G1 X157.287 Y155.262 E5.74447
G1 X156.27 Y155.455 E5.7789
G1 X156.15 Y155.472 E5.78293
G1 X154.811 Y155.579 E5.82761
G1 X153.786 Y155.598 E5.8617
G1 X153.582 Y155.6 E5.86849
G1 X75.011 Y155.6 E8.48177
G1 X74.377 Y155.591 E8.50286
G1 X73.081 Y155.496 E8.54608
G1 X72.743 Y155.451 E8.55742
G1 X71.82 Y155.287 E8.5886
G1 X70.913 Y155.046 E8.61982
G1 X70.031 Y154.728 E8.651
G1 X69.257 Y154.376 E8.67928
G1 X69.046 Y154.27 E8.68713
G1 X68.227 Y153.814 E8.71831
G1 X67.37 Y153.23 E8.75281
G1 X67.273 Y153.157 E8.75684
G1 X66.548 Y152.562 E8.78804
G1 X65.877 Y151.907 E8.81923
G1 X65.079 Y150.957 E8.86049
G1 X64.892 Y150.707 E8.87087
G1 X64.362 Y149.932 E8.9021
G1 X63.901 Y149.116 E8.93327
G1 X63.511 Y148.263 E8.96447
G1 X63.27 Y147.613 E8.98753
G1 X63.206 Y147.422 E8.99423
G1 X62.946 Y146.521 E9.02542
G1 X62.745 Y145.47 E9.06101
G1 X62.728 Y145.35 E9.06504
G1 X62.621 Y144.006 E9.10988
G1 X62.6 Y142.758 E9.1514
G1 X62.599 Y108.076 E10.30492
G1 X62.562 Y105.474 E10.39148
G1 X62.445 Y102.734 E10.48269
G1 X62.435 Y102.281 E10.49776
G1 X62.433 Y100.95 E10.54203
G1 X62.43 Y100.496 E10.55713
G1 X62.437 Y99.845 E10.57879
G1 X62.431 Y98.88 E10.61088
G1 X62.433 Y98.746 E10.61534
G1 X62.43 Y98.077 E10.63759
G1 X62.435 Y97.468 E10.65785
G1 X62.424 Y95.533 E10.72221
G1 X62.422 Y94.67 E10.75091
G1 X62.433 Y93.264 E10.79767
G1 X62.481 Y92.327 E10.82888
G1 X62.608 Y91.398 E10.86007
G1 X62.871 Y90.278 E10.89833
G1 X62.992 Y89.862 E10.91274
G1 X63.12 Y89.446 E10.92722
G1 X63.439 Y88.564 E10.95841
G1 X63.832 Y87.713 E10.98959
G1 X64.296 Y86.898 E11.02078
G1 X64.827 Y86.125 E11.05197
G1 X65.677 Y85.127 E11.09557
G1 X65.843 Y84.954 E11.10355
G1 X66.521 Y84.306 E11.13474
G1 X67.251 Y83.717 E11.16594
G0 F6000 X67.516 Y84.019
G1 F1200 X68.12 Y83.608 E11.19024
G1 X68.253 Y83.524 E11.19547
G1 X69.052 Y83.066 E11.2261
G1 X69.887 Y82.68 E11.2567
G1 X70.348 Y82.504 E11.27311
G1 X70.712 Y82.374 E11.28597
G1 X71.591 Y82.102 E11.31657
G1 X72.491 Y81.907 E11.3472
G1 X73.199 Y81.811 E11.37096
G1 X73.463 Y81.784 E11.37979
G1 X74.404 Y81.73 E11.41114
G1 X75.083 Y81.722 E11.43372
G1 X91.716 Y81.721 E11.98694
G1 X94.345 Y81.684 E12.07439
G1 X96.255 Y81.61 E12.13796
G1 X97.231 Y81.561 E12.17047
G1 X97.933 Y81.549 E12.19382
G1 X99.848 Y81.582 E12.25752
G1 X101.262 Y81.619 E12.30457
G1 X101.542 Y81.63 E12.31389
G1 X102.4 Y81.675 E12.34246
G1 X105.001 Y81.774 E12.42903
G1 X107.152 Y81.799 E12.50058
G1 X153.982 Y81.801 E14.05815
G1 X154.631 Y81.81 E14.07974
G1 X155.883 Y81.902 E14.1215
G1 X156.191 Y81.943 E14.13183
G1 X157.097 Y82.104 E14.16244
G1 X157.986 Y82.343 E14.19305
G1 X158.851 Y82.658 E14.22367
G1 X159.447 Y82.927 E14.24542
G1 X159.67 Y83.036 E14.25368
G1 X160.479 Y83.476 E14.28431
G1 X161.347 Y84.058 E14.31907
G1 X161.445 Y84.131 E14.32313
G1 X162.159 Y84.713 E14.35377
G1 X162.82 Y85.354 E14.38439
G1 X163.569 Y86.24 E14.42298
G1 X163.758 Y86.49 E14.4334
G1 X164.28 Y87.247 E14.46399
G1 X164.735 Y88.048 E14.49463
G1 X165.119 Y88.885 E14.52526
G1 X165.384 Y89.609 E14.5509
G1 X165.446 Y89.8 E14.55758
G1 X165.692 Y90.687 E14.58819
G1 X165.859 Y91.586 E14.6186
G1 X165.876 Y91.706 E14.62264
G1 X165.979 Y92.997 E14.66571
G1 X166 Y94.218 E14.70633
G1 X166 Y143.145 E16.33365
G1 X165.991 Y143.81 E16.35577
G1 X165.899 Y145.066 E16.39765
G1 X165.854 Y145.404 E16.40899
G1 X165.693 Y146.31 E16.4396
G1 X165.454 Y147.199 E16.47022
G1 X165.139 Y148.064 E16.50084
G1 X164.828 Y148.745 E16.52574
G1 X164.724 Y148.953 E16.53347
G1 X164.277 Y149.758 E16.5641
G1 X163.723 Y150.573 E16.59687
G1 X163.648 Y150.673 E16.60103
G1 X163.064 Y151.385 E16.63166
G1 X162.421 Y152.043 E16.66226
G1 X161.523 Y152.797 E16.70126
G1 X161.272 Y152.985 E16.71169
G1 X160.511 Y153.504 E16.74233
G1 X159.709 Y153.956 E16.77294
G1 X158.871 Y154.336 E16.80355
G1 X158.253 Y154.562 E16.82543
G1 X158.063 Y154.625 E16.83209
G1 X157.177 Y154.877 E16.86273
G1 X156.214 Y155.059 E16.89533
G1 X156.094 Y155.076 E16.89936
G1 X154.803 Y155.179 E16.94243
G1 X153.582 Y155.2 E16.98305
G1 X75.017 Y155.2 E19.59613
G1 X74.383 Y155.191 E19.61722
G1 X73.134 Y155.099 E19.65888
G1 X72.796 Y155.054 E19.67022
G1 X71.89 Y154.893 E19.70082
G1 X71.001 Y154.654 E19.73144
G1 X70.136 Y154.339 E19.76206
G1 X69.437 Y154.019 E19.78763
G1 X69.226 Y153.913 E19.79548
G1 X68.422 Y153.464 E19.82611
G1 X67.61 Y152.911 E19.85879
G1 X67.513 Y152.838 E19.86282
G1 X66.802 Y152.252 E19.89347
G1 X66.145 Y151.608 E19.92407
G1 X65.399 Y150.717 E19.96272
G1 X65.212 Y150.467 E19.9731
G1 X64.693 Y149.707 E20.00371
G1 X64.242 Y148.904 E20.03434
G1 X63.862 Y148.065 E20.06498
G1 X63.649 Y147.486 E20.0855
G1 X63.585 Y147.295 E20.0922
G1 X63.331 Y146.41 E20.12282
G1 X63.141 Y145.414 E20.15654
G1 X63.124 Y145.294 E20.16058
G1 X63.021 Y143.999 E20.20378
G1 X63 Y142.758 E20.24506
G1 X62.999 Y108.07 E21.39879
G1 X62.962 Y105.451 E21.48591
G1 X62.845 Y102.717 E21.57693
G1 X62.835 Y102.28 E21.59146
G1 X62.833 Y100.949 E21.63573
G1 X62.83 Y100.493 E21.6509
G1 X62.837 Y99.847 E21.67239
G1 X62.831 Y98.878 E21.70462
G1 X62.833 Y98.747 E21.70898
G1 X62.83 Y98.08 E21.73116
G1 X62.835 Y97.469 E21.75148
G1 X62.824 Y95.532 E21.81591
G1 X62.822 Y94.673 E21.84448
G1 X62.833 Y93.267 E21.89124
G1 X62.881 Y92.348 E21.92185
G1 X63.007 Y91.436 E21.95247
G1 X63.255 Y90.39 E21.98823
G1 X63.441 Y89.757 E22.01017
G1 X63.501 Y89.566 E22.01683
G1 X63.815 Y88.701 E22.04744
G1 X64.203 Y87.866 E22.07806
G1 X64.661 Y87.067 E22.10869
G1 X65.188 Y86.312 E22.13932
G1 X65.966 Y85.404 E22.17909
G1 X66.132 Y85.231 E22.18706
G1 X66.797 Y84.595 E22.21767
G1 X67.516 Y84.019 E22.24831
G0 F6000 X67.78 Y84.322
G1 F1200 X68.333 Y83.946 E22.27055
G1 X68.466 Y83.862 E22.27578
G1 X69.25 Y83.414 E22.30581
G1 X70.482 Y82.88 E22.35047
G1 X70.846 Y82.75 E22.36333
G1 X71.709 Y82.484 E22.39337
G1 X72.593 Y82.296 E22.42343
G1 X73.239 Y82.209 E22.44511
G1 X73.503 Y82.182 E22.45393
G1 X74.41 Y82.13 E22.48415
G1 X75.083 Y82.122 E22.50653
G1 X91.722 Y82.121 E23.05995
G1 X94.367 Y82.084 E23.14793
G1 X96.289 Y82.009 E23.21191
G1 X97.251 Y81.961 E23.24394
G1 X97.927 Y81.949 E23.26643
G1 X99.838 Y81.981 E23.33
G1 X101.252 Y82.018 E23.37704
G1 X101.521 Y82.029 E23.386
G1 X102.363 Y82.073 E23.41404
G1 X105.02 Y82.174 E23.50248
G1 X107.148 Y82.199 E23.57326
G1 X153.976 Y82.201 E25.13077
G1 X154.625 Y82.21 E25.15235
G1 X155.83 Y82.298 E25.19254
G1 X156.138 Y82.339 E25.20287
G1 X157.027 Y82.498 E25.23291
G1 X157.899 Y82.735 E25.26297
G1 X158.746 Y83.047 E25.29299
G1 X159.271 Y83.286 E25.31217
G1 X159.494 Y83.395 E25.32043
G1 X160.287 Y83.827 E25.35046
G1 X161.108 Y84.379 E25.38337
G1 X161.206 Y84.452 E25.38743
G1 X161.906 Y85.023 E25.41748
G1 X162.552 Y85.654 E25.44751
G1 X163.25 Y86.481 E25.48351
G1 X163.439 Y86.731 E25.49393
G1 X163.951 Y87.475 E25.52397
G1 X164.395 Y88.261 E25.554
G1 X164.768 Y89.083 E25.58402
G1 X165.004 Y89.733 E25.60702
G1 X165.066 Y89.924 E25.6137
G1 X165.306 Y90.794 E25.64371
G1 X165.463 Y91.642 E25.6724
G1 X165.48 Y91.762 E25.67643
G1 X165.579 Y93.004 E25.71787
G1 X165.6 Y94.218 E25.75825
G1 X165.6 Y143.14 E27.38541
G1 X165.591 Y143.805 E27.40753
G1 X165.503 Y145.013 E27.44781
G1 X165.458 Y145.351 E27.45915
G1 X165.299 Y146.24 E27.48919
G1 X165.062 Y147.112 E27.51924
G1 X164.749 Y147.959 E27.54928
G1 X164.47 Y148.567 E27.57153
G1 X164.366 Y148.775 E27.57926
G1 X163.927 Y149.564 E27.60929
G1 X163.403 Y150.333 E27.64024
G1 X163.328 Y150.433 E27.6444
G1 X162.755 Y151.131 E27.67444
G1 X162.122 Y151.775 E27.70447
G1 X161.283 Y152.477 E27.74086
G1 X161.032 Y152.665 E27.75129
G1 X160.286 Y153.174 E27.78132
G1 X159.498 Y153.615 E27.81136
G1 X158.673 Y153.984 E27.84142
G1 X158.127 Y154.183 E27.86075
G1 X157.937 Y154.246 E27.8674
G1 X157.068 Y154.492 E27.89744
G1 X156.158 Y154.663 E27.92824
G1 X156.038 Y154.68 E27.93227
G1 X154.796 Y154.779 E27.97371
G1 X153.582 Y154.8 E28.01409
G1 X75.022 Y154.8 E30.62701
G1 X74.388 Y154.791 E30.6481
G1 X73.187 Y154.703 E30.68815
G1 X72.849 Y154.658 E30.69949
G1 X71.96 Y154.499 E30.72953
G1 X71.088 Y154.262 E30.75959
G1 X70.241 Y153.949 E30.78962
G1 X69.616 Y153.662 E30.81249
G1 X69.405 Y153.556 E30.82035
G1 X68.617 Y153.115 E30.85038
G1 X67.851 Y152.591 E30.88125
G1 X67.754 Y152.518 E30.88529
G1 X67.057 Y151.943 E30.91534
G1 X66.413 Y151.31 E30.94537
G1 X65.719 Y150.478 E30.98141
G1 X65.532 Y150.228 E30.99179
G1 X65.024 Y149.481 E31.02184
G1 X64.583 Y148.693 E31.05187
G1 X64.214 Y147.868 E31.08193
G1 X64.029 Y147.359 E31.09995
G1 X63.965 Y147.168 E31.10665
G1 X63.716 Y146.3 E31.13668
G1 X63.537 Y145.358 E31.16857
G1 X63.52 Y145.238 E31.1726
G1 X63.421 Y143.992 E31.21418
G1 X63.4 Y142.758 E31.25522
G1 X63.399 Y108.064 E32.40915
G1 X63.362 Y105.464 E32.49564
G1 X63.244 Y102.7 E32.58765
G1 X63.235 Y102.279 E32.60166
G1 X63.233 Y100.948 E32.64593
G1 X63.23 Y100.491 E32.66113
G1 X63.237 Y99.85 E32.68245
G1 X63.231 Y98.876 E32.71484
G1 X63.233 Y98.749 E32.71907
G1 X63.23 Y98.083 E32.74122
G1 X63.235 Y97.47 E32.76161
G1 X63.224 Y95.531 E32.8261
G1 X63.222 Y94.676 E32.85454
G1 X63.233 Y93.27 E32.9013
G1 X63.28 Y92.368 E32.93134
G1 X63.407 Y91.474 E32.96138
G1 X63.639 Y90.501 E32.99465
G1 X63.76 Y90.085 E33.00906
G1 X63.883 Y89.686 E33.02294
G1 X64.191 Y88.837 E33.05298
G1 X64.574 Y88.019 E33.08302
G1 X65.027 Y87.238 E33.11305
G1 X65.548 Y86.5 E33.1431
G1 X66.254 Y85.681 E33.17906
G1 X66.42 Y85.508 E33.18704
G1 X67.074 Y84.885 E33.21708
G1 X67.78 Y84.322 E33.24711
G1 F2700 E28.24711
G1 F300 Z0.4
G0 F6000 X76.832 Y109.909 Z0.4
G1 F300 Z0.2
G1 F2700 E33.24711
G1 F1200 X77 Y109.865 E33.25289
G1 X77.168 Y109.909 E33.25867
G1 X77.291 Y110.032 E33.26445
G1 X77.335 Y110.2 E33.27023
G1 X77.291 Y110.368 E33.276
G1 X77.168 Y110.491 E33.28179
G1 X77 Y110.535 E33.28757
G1 X76.832 Y110.491 E33.29334
G1 X76.709 Y110.368 E33.29913
G1 X76.665 Y110.2 E33.3049
G1 X76.709 Y110.032 E33.31068
G1 X76.832 Y109.909 E33.31647
G0 F6000 X76.628 Y109.561
G1 F1200 X76.807 Y109.487 E33.32291
G1 X77.193 Y109.487 E33.33575
G1 X77.372 Y109.561 E33.34219
G1 X77.639 Y109.828 E33.35475
G1 X77.713 Y110.007 E33.36119
G1 X77.713 Y110.393 E33.37403
G1 X77.639 Y110.572 E33.38047
G1 X77.372 Y110.839 E33.39303
G1 X77.193 Y110.913 E33.39947
G1 X76.807 Y110.913 E33.41231
G1 X76.628 Y110.839 E33.41875
G1 X76.361 Y110.572 E33.43131
G1 X76.287 Y110.393 E33.43775
G1 X76.287 Y110.007 E33.45059
G1 X76.361 Y109.828 E33.45703
G1 X76.628 Y109.561 E33.46959
G0 F6000 X76.428 Y109.211
G1 F1200 X76.703 Y109.097 E33.47949
G1 X77 Y109.058 E33.48946
G1 X77.297 Y109.097 E33.49942
G1 X77.572 Y109.211 E33.50932
G1 X77.808 Y109.392 E33.51921
G1 X77.989 Y109.628 E33.52911
G1 X78.103 Y109.903 E33.53901
G1 X78.142 Y110.2 E33.54897
G1 X78.103 Y110.497 E33.55893
G1 X77.989 Y110.772 E33.56883
G1 X77.808 Y111.008 E33.57873
G1 X77.572 Y111.189 E33.58862
G1 X77.297 Y111.303 E33.59852
G1 X77 Y111.342 E33.60848
G1 X76.703 Y111.303 E33.61845
G1 X76.428 Y111.189 E33.62835
G1 X76.192 Y111.008 E33.63824
G1 X76.011 Y110.772 E33.64813
G1 X75.897 Y110.497 E33.65803
G1 X75.858 Y110.2 E33.668
G1 X75.897 Y109.903 E33.67796
G1 X76.011 Y109.628 E33.68786
G1 X76.192 Y109.392 E33.69775
G1 X76.428 Y109.211 E33.70764
G0 F6000 X76.226 Y108.862
G1 F1200 X76.602 Y108.706 E33.72118
G1 X77 Y108.654 E33.73453
G1 X77.398 Y108.706 E33.74788
G1 X77.774 Y108.862 E33.76142
G1 X78.093 Y109.107 E33.7748
G1 X78.338 Y109.426 E33.78818
G1 X78.494 Y109.802 E33.80172
G1 X78.546 Y110.2 E33.81507
G1 X78.494 Y110.598 E33.82842
G1 X78.338 Y110.974 E33.84196
G1 X78.093 Y111.293 E33.85534
G1 X77.774 Y111.538 E33.86871
G1 X77.398 Y111.694 E33.88225
G1 X77 Y111.746 E33.8956
G1 X76.602 Y111.694 E33.90895
G1 X76.226 Y111.538 E33.92249
G1 X75.907 Y111.293 E33.93587
G1 X75.662 Y110.974 E33.94925
G1 X75.506 Y110.598 E33.96279
G1 X75.454 Y110.2 E33.97614
G1 X75.506 Y109.802 E33.98949
G1 X75.662 Y109.426 E34.00303
G1 X75.907 Y109.107 E34.01641
G1 X76.226 Y108.862 E34.02979
G1 F2700 E29.02979
G1 F300 Z0.4
G0 F6000 X74.55 Y101.962 Z0.4
G1 F300 Z0.2
G1 F2700 E34.02979
G1 F1200 X73.654 Y101.964 E34.05959
G1 X73.634 Y101.765 E34.06624
G1 X73.674 Y101.583 E34.07244
G1 X73.628 Y101.236 E34.08408
G1 X73.668 Y101.069 E34.08979
G1 X73.633 Y100.712 E34.10172
G1 X73.673 Y100.532 E34.10785
G1 X73.631 Y100.191 E34.11928
G1 X73.673 Y100.015 E34.1253
G1 X73.635 Y99.672 E34.13678
G1 X73.677 Y99.49 E34.14299
G1 X73.632 Y99.133 E34.15496
G1 X73.671 Y98.966 E34.16066
G1 X73.633 Y98.624 E34.17211
G1 X73.677 Y98.44 E34.1784
G1 X73.635 Y98.09 E34.19012
G1 X73.674 Y97.922 E34.19586
G1 X73.636 Y97.585 E34.20714
G1 X73.679 Y97.41 E34.21313
G1 X73.635 Y97.04 E34.22553
G1 X73.676 Y96.863 E34.23157
G1 X73.635 Y96.529 E34.24276
G1 X73.677 Y96.356 E34.24868
G1 X73.63 Y95.956 E34.26208
G1 X73.665 Y95.795 E34.26756
G1 X73.627 Y95.469 E34.27847
G1 X73.668 Y95.301 E34.28423
G1 X73.632 Y94.952 E34.2959
G1 X73.674 Y94.77 E34.30211
G1 X73.631 Y94.403 E34.3144
G1 X73.67 Y94.232 E34.32023
G1 X73.631 Y93.897 E34.33145
G1 X73.67 Y93.725 E34.33731
G1 X73.628 Y93.373 E34.34911
G1 X73.82 Y92.854 E34.36751
G1 X73.871 Y92.737 E34.37176
G1 X74.044 Y92.628 E34.37856
G1 X74.334 Y92.532 E34.38872
G1 X74.453 Y92.522 E34.39269
G1 X94.91 Y92.521 E35.07309
G1 X95.804 Y92.476 E35.10286
G1 X96.195 Y92.442 E35.11592
G1 X96.253 Y92.434 E35.11786
