;FLAVOR:Marlin
;TIME:9773
;Filament used: 4.98001m
;Layer height: 0.2
;MINX:65.6
;MINY:80.399
;MINZ:0.2
;MAXX:169.4
;MAXY:154.6
;MAXZ:9.2
;Generated with Cura_SteamEngine 4.8.0
M140 S50
M105
M190 S50
M104 S200
M105
M109 S200
M82 ;absolute extrusion mode
; Ender 3 Custom Start G-code
G21        ;metric values
G90        ;absolute positioning
M82        ;set extruder to absolute mode
M107       ;start with the fan off
G28 X0 Y0  ;move X/Y to min endstops
G28 Z0     ;move Z to min endstops
G29; bed leveling
G1 Z15.0 F150.0 ;move the platform down 15mm
G92 E0                  ;zero the extruded length
G1 F200 E3              ;extrude 3mm of feed stock
G92 E0                  ;zero the extruded length again
G1 F150.0
;Put printing message on LCD screen
M117 Printing...
G92 E0
G92 E0
G1 F2700 E-5
;LAYER_COUNT:45
;LAYER:0
M107
G1 F300 Z0.4
G0 F6000 X70.238 Y82.883 Z0.4
;TYPE:SKIRT
G1 F300 Z0.2
G1 F2700 E0
G1 F1200 X70.489 Y82.695 E0.01043
G1 X71.263 Y82.165 E0.04163
G1 X72.079 Y81.703 E0.07282
G1 X72.931 Y81.313 E0.10398
G1 X73.621 Y81.058 E0.12845
G1 X73.811 Y80.995 E0.13511
G1 X74.713 Y80.738 E0.1663
G1 X75.73 Y80.545 E0.20073
G1 X75.85 Y80.528 E0.20476
G1 X77.189 Y80.421 E0.24944
G1 X78.214 Y80.402 E0.28354
G1 X78.418 Y80.4 E0.29032
G1 X156.833 Y80.399 E2.89842
G1 X157.623 Y80.409 E2.9247
G1 X158.919 Y80.504 E2.96792
G1 X159.257 Y80.549 E2.97926
G1 X160.18 Y80.713 E3.01044
G1 X161.087 Y80.954 E3.04165
G1 X161.969 Y81.272 E3.07283
G1 X162.743 Y81.624 E3.10111
G1 X162.954 Y81.73 E3.10897
G1 X163.773 Y82.186 E3.14015
G1 X164.63 Y82.77 E3.17464
G1 X164.727 Y82.843 E3.17868
G1 X165.452 Y83.438 E3.20987
G1 X166.123 Y84.093 E3.24106
G1 X166.917 Y85.038 E3.28211
G1 X167.105 Y85.289 E3.29254
G1 X167.635 Y86.063 E3.32374
G1 X168.097 Y86.879 E3.35493
G1 X168.487 Y87.731 E3.3861
G1 X168.742 Y88.421 E3.41056
G1 X168.805 Y88.611 E3.41722
G1 X169.062 Y89.513 E3.44842
G1 X169.255 Y90.53 E3.48284
G1 X169.272 Y90.65 E3.48688
G1 X169.379 Y91.989 E3.53155
G1 X169.398 Y93.014 E3.56565
G1 X169.4 Y93.218 E3.57244
G1 X169.4 Y142.151 E5.19995
G1 X169.391 Y142.816 E5.22207
G1 X169.296 Y144.119 E5.26553
G1 X169.251 Y144.457 E5.27687
G1 X169.087 Y145.38 E5.30805
G1 X168.846 Y146.287 E5.33926
G1 X168.528 Y147.169 E5.37045
G1 X168.186 Y147.924 E5.39801
G1 X168.082 Y148.132 E5.40575
G1 X167.627 Y148.953 E5.43697
G1 X167.043 Y149.813 E5.47154
G1 X166.968 Y149.913 E5.4757
G1 X166.374 Y150.639 E5.5069
G1 X165.72 Y151.311 E5.53809
G1 X164.762 Y152.117 E5.57973
G1 X164.511 Y152.305 E5.59016
G1 X163.737 Y152.835 E5.62136
G1 X162.921 Y153.297 E5.65255
G1 X162.069 Y153.687 E5.68371
G1 X161.379 Y153.942 E5.70818
G1 X161.189 Y154.005 E5.71484
G1 X160.287 Y154.262 E5.74603
G1 X159.27 Y154.455 E5.78046
G1 X159.15 Y154.472 E5.78449
G1 X157.811 Y154.579 E5.82917
G1 X156.786 Y154.598 E5.86327
G1 X156.582 Y154.6 E5.87005
G1 X78.011 Y154.6 E8.48333
G1 X77.377 Y154.591 E8.50442
G1 X76.081 Y154.496 E8.54764
G1 X75.743 Y154.451 E8.55899
G1 X74.82 Y154.287 E8.59017
G1 X73.913 Y154.046 E8.62138
G1 X73.031 Y153.728 E8.65256
G1 X72.257 Y153.376 E8.68084
G1 X72.046 Y153.27 E8.6887
G1 X71.227 Y152.814 E8.71987
G1 X70.37 Y152.23 E8.75437
G1 X70.273 Y152.157 E8.75841
G1 X69.548 Y151.562 E8.7896
G1 X68.877 Y150.907 E8.82079
G1 X68.079 Y149.957 E8.86205
G1 X67.892 Y149.707 E8.87244
G1 X67.362 Y148.932 E8.90366
G1 X66.901 Y148.116 E8.93484
G1 X66.511 Y147.263 E8.96603
G1 X66.27 Y146.613 E8.98909
G1 X66.206 Y146.422 E8.99579
G1 X65.946 Y145.521 E9.02698
G1 X65.745 Y144.47 E9.06257
G1 X65.728 Y144.35 E9.0666
G1 X65.621 Y143.006 E9.11144
G1 X65.6 Y141.758 E9.15296
G1 X65.601 Y92.809 E10.78101
G1 X65.61 Y92.158 E10.80266
G1 X65.705 Y90.856 E10.84608
G1 X65.745 Y90.556 E10.85615
G1 X65.909 Y89.633 E10.88733
G1 X66.151 Y88.726 E10.91855
G1 X66.468 Y87.844 E10.94972
G1 X66.757 Y87.198 E10.97326
G1 X66.865 Y86.976 E10.98147
G1 X67.311 Y86.151 E11.01267
G1 X67.926 Y85.23 E11.0495
G1 X68.001 Y85.129 E11.05368
G1 X68.591 Y84.401 E11.08485
G1 X69.242 Y83.725 E11.11607
G1 X70.238 Y82.883 E11.15944
G0 F6000 X70.477 Y83.203
G1 F1200 X70.728 Y83.015 E11.16987
G1 X71.489 Y82.496 E11.20051
G1 X72.291 Y82.044 E11.23113
G1 X73.129 Y81.664 E11.26173
G1 X73.747 Y81.438 E11.28362
G1 X73.937 Y81.375 E11.29028
G1 X74.823 Y81.123 E11.32092
G1 X75.786 Y80.941 E11.35351
G1 X75.906 Y80.924 E11.35754
G1 X77.197 Y80.821 E11.40062
G1 X78.418 Y80.8 E11.44124
G1 X156.833 Y80.799 E14.04933
G1 X157.617 Y80.809 E14.07541
G1 X158.866 Y80.901 E14.11706
G1 X159.204 Y80.946 E14.1284
G1 X160.11 Y81.107 E14.15901
G1 X160.999 Y81.346 E14.18963
G1 X161.864 Y81.661 E14.22024
G1 X162.563 Y81.981 E14.24581
G1 X162.774 Y82.087 E14.25367
G1 X163.578 Y82.536 E14.2843
G1 X164.39 Y83.089 E14.31697
G1 X164.487 Y83.162 E14.32101
G1 X165.198 Y83.748 E14.35165
G1 X165.855 Y84.392 E14.38225
G1 X166.597 Y85.277 E14.42067
G1 X166.785 Y85.528 E14.4311
G1 X167.304 Y86.289 E14.46173
G1 X167.756 Y87.091 E14.49235
G1 X168.136 Y87.929 E14.52296
G1 X168.362 Y88.547 E14.54484
G1 X168.425 Y88.737 E14.5515
G1 X168.677 Y89.623 E14.58214
G1 X168.859 Y90.586 E14.61473
G1 X168.876 Y90.706 E14.61876
G1 X168.979 Y91.997 E14.66184
G1 X169 Y93.218 E14.70246
G1 X169 Y142.145 E16.32977
G1 X168.991 Y142.81 E16.35189
G1 X168.899 Y144.066 E16.39378
G1 X168.854 Y144.404 E16.40512
G1 X168.693 Y145.31 E16.43573
G1 X168.454 Y146.199 E16.46635
G1 X168.139 Y147.064 E16.49696
G1 X167.828 Y147.745 E16.52187
G1 X167.724 Y147.953 E16.5296
G1 X167.277 Y148.758 E16.56022
G1 X166.723 Y149.573 E16.593
G1 X166.648 Y149.673 E16.59716
G1 X166.064 Y150.385 E16.62779
G1 X165.421 Y151.043 E16.65839
G1 X164.523 Y151.797 E16.69739
G1 X164.272 Y151.985 E16.70782
G1 X163.511 Y152.504 E16.73845
G1 X162.709 Y152.956 E16.76907
G1 X161.871 Y153.336 E16.79968
G1 X161.253 Y153.562 E16.82156
G1 X161.063 Y153.625 E16.82822
G1 X160.177 Y153.877 E16.85886
G1 X159.214 Y154.059 E16.89145
G1 X159.094 Y154.076 E16.89549
G1 X157.803 Y154.179 E16.93856
G1 X156.582 Y154.2 E16.97918
G1 X78.017 Y154.2 E19.59226
G1 X77.383 Y154.191 E19.61335
G1 X76.134 Y154.099 E19.655
G1 X75.796 Y154.054 E19.66634
G1 X74.89 Y153.893 E19.69695
G1 X74.001 Y153.654 E19.72757
G1 X73.136 Y153.339 E19.75819
G1 X72.437 Y153.019 E19.78376
G1 X72.226 Y152.913 E19.79161
G1 X71.422 Y152.464 E19.82224
G1 X70.61 Y151.911 E19.85491
G1 X70.513 Y151.838 E19.85895
G1 X69.802 Y151.252 E19.8896
G1 X69.145 Y150.608 E19.9202
G1 X68.399 Y149.717 E19.95885
G1 X68.212 Y149.467 E19.96923
G1 X67.693 Y148.707 E19.99984
G1 X67.242 Y147.904 E20.03047
G1 X66.862 Y147.065 E20.06111
G1 X66.649 Y146.486 E20.08162
G1 X66.585 Y146.295 E20.08832
G1 X66.331 Y145.41 E20.11895
G1 X66.141 Y144.414 E20.15267
G1 X66.124 Y144.294 E20.1567
G1 X66.021 Y142.999 E20.19991
G1 X66 Y141.758 E20.24119
G1 X66.001 Y92.814 E21.86908
G1 X66.01 Y92.163 E21.89073
G1 X66.102 Y90.909 E21.93255
G1 X66.142 Y90.609 E21.94262
G1 X66.303 Y89.703 E21.97322
G1 X66.542 Y88.814 E22.00384
G1 X66.858 Y87.949 E22.03447
G1 X67.117 Y87.373 E22.05548
G1 X67.225 Y87.151 E22.06369
G1 X67.663 Y86.341 E22.09432
G1 X68.247 Y85.469 E22.12922
G1 X68.322 Y85.368 E22.13341
G1 X68.902 Y84.653 E22.16403
G1 X69.542 Y83.991 E22.19465
G1 X70.477 Y83.203 E22.23532
G0 F6000 X70.717 Y83.523
G1 F1200 X70.968 Y83.335 E22.24575
G1 X71.714 Y82.826 E22.27579
G1 X72.502 Y82.385 E22.30582
G1 X73.327 Y82.016 E22.33588
G1 X73.873 Y81.817 E22.35521
G1 X74.063 Y81.754 E22.36187
G1 X74.932 Y81.508 E22.39191
G1 X75.842 Y81.337 E22.42271
G1 X75.962 Y81.32 E22.42674
G1 X77.204 Y81.221 E22.46818
G1 X78.418 Y81.2 E22.50856
G1 X156.833 Y81.199 E25.11665
G1 X157.612 Y81.209 E25.14257
G1 X158.813 Y81.297 E25.18262
G1 X159.151 Y81.342 E25.19396
G1 X160.04 Y81.501 E25.224
G1 X160.912 Y81.738 E25.25405
G1 X161.759 Y82.051 E25.28409
G1 X162.384 Y82.338 E25.30696
G1 X162.595 Y82.444 E25.31481
G1 X163.383 Y82.885 E25.34485
G1 X164.149 Y83.409 E25.37572
G1 X164.246 Y83.482 E25.37975
G1 X164.943 Y84.057 E25.40981
G1 X165.587 Y84.69 E25.43984
G1 X166.277 Y85.517 E25.47566
G1 X166.465 Y85.768 E25.48609
G1 X166.974 Y86.514 E25.51613
G1 X167.415 Y87.302 E25.54617
G1 X167.784 Y88.127 E25.57622
G1 X167.983 Y88.673 E25.59555
G1 X168.046 Y88.863 E25.60221
G1 X168.292 Y89.732 E25.63225
G1 X168.463 Y90.642 E25.66305
G1 X168.48 Y90.762 E25.66708
G1 X168.579 Y92.004 E25.70852
G1 X168.6 Y93.218 E25.7489
G1 X168.6 Y142.14 E27.37605
G1 X168.591 Y142.805 E27.39817
G1 X168.503 Y144.013 E27.43846
G1 X168.458 Y144.351 E27.4498
G1 X168.299 Y145.24 E27.47984
G1 X168.062 Y146.112 E27.50989
G1 X167.749 Y146.959 E27.53993
G1 X167.47 Y147.567 E27.56217
G1 X167.366 Y147.775 E27.56991
G1 X166.927 Y148.564 E27.59994
G1 X166.403 Y149.333 E27.63089
G1 X166.328 Y149.433 E27.63505
G1 X165.755 Y150.131 E27.66508
G1 X165.122 Y150.775 E27.69512
G1 X164.283 Y151.477 E27.7315
G1 X164.032 Y151.665 E27.74193
G1 X163.286 Y152.174 E27.77197
G1 X162.498 Y152.615 E27.80201
G1 X161.673 Y152.984 E27.83206
G1 X161.127 Y153.183 E27.85139
G1 X160.937 Y153.246 E27.85805
G1 X160.068 Y153.492 E27.88809
G1 X159.158 Y153.663 E27.91889
G1 X159.038 Y153.68 E27.92292
G1 X157.796 Y153.779 E27.96436
G1 X156.582 Y153.8 E28.00474
G1 X78.022 Y153.8 E30.61766
G1 X77.388 Y153.791 E30.63875
G1 X76.187 Y153.703 E30.6788
G1 X75.849 Y153.658 E30.69014
G1 X74.96 Y153.499 E30.72018
G1 X74.088 Y153.262 E30.75023
G1 X73.241 Y152.949 E30.78027
G1 X72.616 Y152.662 E30.80314
G1 X72.405 Y152.556 E30.81099
G1 X71.617 Y152.115 E30.84103
G1 X70.851 Y151.591 E30.8719
G1 X70.754 Y151.518 E30.87593
G1 X70.057 Y150.943 E30.90599
G1 X69.413 Y150.31 E30.93602
G1 X68.719 Y149.478 E30.97206
G1 X68.532 Y149.228 E30.98244
G1 X68.024 Y148.481 E31.01249
G1 X67.583 Y147.693 E31.04252
G1 X67.214 Y146.868 E31.07258
G1 X67.029 Y146.359 E31.09059
G1 X66.965 Y146.168 E31.09729
G1 X66.716 Y145.3 E31.12733
G1 X66.537 Y144.358 E31.15922
G1 X66.52 Y144.238 E31.16325
G1 X66.421 Y142.992 E31.20482
G1 X66.4 Y141.758 E31.24587
G1 X66.401 Y92.82 E32.87356
G1 X66.41 Y92.169 E32.89521
G1 X66.498 Y90.962 E32.93546
G1 X66.538 Y90.662 E32.94553
G1 X66.697 Y89.773 E32.97557
G1 X66.934 Y88.901 E33.00562
G1 X67.247 Y88.054 E33.03565
G1 X67.477 Y87.548 E33.05414
G1 X67.585 Y87.326 E33.06235
G1 X68.015 Y86.532 E33.09238
G1 X68.568 Y85.707 E33.12542
G1 X68.643 Y85.606 E33.1296
G1 X69.213 Y84.905 E33.15965
G1 X69.843 Y84.258 E33.18969
G1 X70.717 Y83.523 E33.22767
G1 F2700 E28.22767
G1 F300 Z0.4
;MESH:BOX_bottom.stl
G0 F6000 X77.6 Y92.4 Z0.4
;TYPE:WALL-INNER
G1 F300 Z0.2
G1 F2700 E33.22767
G1 F1200 X157.4 Y92.399 E35.88183
G1 X157.401 Y142.401 E37.5449
G1 X157.401 Y142.6 E37.55152
G1 X157.202 Y142.6 E37.5558
G1 X77.799 Y142.601 E40.19676
G1 X77.6 Y142.601 E40.20338
G1 X77.6 Y142.402 E40.20766
G1 X77.6 Y92.4 E41.87073
G0 F6000 X77.283 Y92.085
G1 F1200 X77.508 Y92 E41.87873
G1 X157.49 Y91.999 E44.53894
G1 X157.714 Y92.082 E44.54689
G1 X157.8 Y92.308 E44.55493
G1 X157.801 Y142.69 E46.23064
G1 X157.718 Y142.914 E46.23859
G1 X157.492 Y143 E46.24663
G1 X77.51 Y143.001 E48.90684
G1 X77.286 Y142.918 E48.91479
G1 X77.2 Y142.692 E48.92283
G1 X77.2 Y92.303 E50.59878
G1 X77.283 Y92.085 E50.60654
G0 F6000 X76.988 Y91.797
;TYPE:WALL-OUTER
G1 F1200 X77.255 Y91.633 E50.61696
G1 X77.476 Y91.6 E50.62439
G1 X157.523 Y91.599 E53.28676
G1 X157.735 Y91.631 E53.29389
G1 X158.003 Y91.788 E53.30423
G1 X158.167 Y92.055 E53.31465
G1 X158.2 Y92.276 E53.32208
G1 X158.201 Y142.723 E54.99995
G1 X158.169 Y142.935 E55.00708
G1 X158.012 Y143.203 E55.01742
G1 X157.745 Y143.367 E55.02784
G1 X157.524 Y143.4 E55.03527
G1 X77.477 Y143.401 E57.69764
G1 X77.265 Y143.369 E57.70477
G1 X76.997 Y143.212 E57.7151
G1 X76.833 Y142.945 E57.72553
G1 X76.8 Y142.724 E57.73296
G1 X76.8 Y92.276 E59.41087
G1 X76.832 Y92.065 E59.41796
G1 X76.988 Y91.797 E59.42828
G0 F6000 X77.302 Y92.104
G0 X77.99 Y92.79
;TYPE:SKIN
G1 F1200 X157.01 Y92.789 E62.05649
G1 X157.011 Y142.21 E63.70024
G1 X77.99 Y142.211 E66.32849
G1 X77.99 Y92.79 E67.97224
G1 F2700 E62.97224
G1 F300 Z0.4
G0 F6000 X78.693 Y142.049 Z0.4
G1 F300 Z0.2
G1 F2700 E67.97224
G1 F1200 X78.149 Y141.506 E67.99781
G0 F6000 X78.149 Y140.94
G1 F1200 X79.258 Y142.049 E68.04997
G0 F6000 X79.824 Y142.049
G1 F1200 X78.149 Y140.374 E68.12876
G0 F6000 X78.149 Y139.809
G1 F1200 X80.39 Y142.049 E68.23414
G0 F6000 X80.955 Y142.049
G1 F1200 X78.149 Y139.243 E68.36613
G0 F6000 X78.149 Y138.677
G1 F1200 X81.521 Y142.049 E68.52474
G0 F6000 X82.087 Y142.049
G1 F1200 X78.149 Y138.112 E68.70994
G0 F6000 X78.149 Y137.546
G1 F1200 X82.653 Y142.049 E68.92178
G0 F6000 X83.218 Y142.049
G1 F1200 X78.149 Y136.98 E69.16021
G0 F6000 X78.149 Y136.415
G1 F1200 X83.784 Y142.049 E69.42524
G0 F6000 X84.35 Y142.049
G1 F1200 X78.149 Y135.849 E69.71689
G0 F6000 X78.149 Y135.283
G1 F1200 X84.915 Y142.049 E70.03514
G0 F6000 X85.481 Y142.049
G1 F1200 X78.149 Y134.717 E70.38001
G0 F6000 X78.149 Y134.152
G1 F1200 X86.047 Y142.049 E70.75149
G0 F6000 X86.612 Y142.049
G1 F1200 X78.149 Y133.586 E71.14956
G0 F6000 X78.149 Y133.02
G1 F1200 X87.178 Y142.049 E71.57426
G0 F6000 X87.744 Y142.049
G1 F1200 X78.149 Y132.455 E72.02555
G0 F6000 X78.149 Y131.889
G1 F1200 X88.309 Y142.049 E72.50345
G0 F6000 X88.875 Y142.049
G1 F1200 X78.149 Y131.323 E73.00797
G0 F6000 X78.149 Y130.758
G1 F1200 X89.441 Y142.049 E73.53909
G0 F6000 X90.006 Y142.049
G1 F1200 X78.149 Y130.192 E74.0968
G0 F6000 X78.149 Y129.626
G1 F1200 X90.572 Y142.049 E74.68114
G0 F6000 X91.138 Y142.049
G1 F1200 X78.149 Y129.061 E75.29208
G0 F6000 X78.149 Y128.495
G1 F1200 X91.703 Y142.049 E75.92962
G0 F6000 X92.269 Y142.049
G1 F1200 X78.149 Y127.929 E76.59378
G0 F6000 X78.149 Y127.364
G1 F1200 X92.835 Y142.049 E77.28454
G0 F6000 X93.401 Y142.049
G1 F1200 X78.149 Y126.798 E78.00193
G0 F6000 X78.149 Y126.232
G1 F1200 X93.966 Y142.049 E78.74591
G0 F6000 X94.532 Y142.049
G1 F1200 X78.149 Y125.667 E79.51649
G0 F6000 X78.149 Y125.101
G1 F1200 X95.098 Y142.049 E80.3137
G0 F6000 X95.663 Y142.049
G1 F1200 X78.149 Y124.535 E81.1375
G0 F6000 X78.149 Y123.969
G1 F1200 X96.229 Y142.049 E81.98793
G0 F6000 X96.795 Y142.049
G1 F1200 X78.149 Y123.404 E82.86496
G0 F6000 X78.149 Y122.838
G1 F1200 X97.36 Y142.049 E83.76858
G0 F6000 X97.926 Y142.049
G1 F1200 X78.149 Y122.272 E84.69883
G0 F6000 X78.149 Y121.707
G1 F1200 X98.492 Y142.049 E85.65568
G0 F6000 X99.057 Y142.049
G1 F1200 X78.149 Y121.141 E86.63913
G0 F6000 X78.149 Y120.575
G1 F1200 X99.623 Y142.049 E87.6492
G0 F6000 X100.189 Y142.049
G1 F1200 X78.149 Y120.01 E88.68587
G0 F6000 X78.149 Y119.444
G1 F1200 X100.754 Y142.049 E89.74914
G0 F6000 X101.32 Y142.049
G1 F1200 X78.149 Y118.878 E90.83903
G0 F6000 X78.149 Y118.313
G1 F1200 X101.886 Y142.049 E91.95553
G0 F6000 X102.451 Y142.049
G1 F1200 X78.149 Y117.747 E93.09862
G0 F6000 X78.149 Y117.181
G1 F1200 X103.017 Y142.049 E94.26833
G0 F6000 X103.583 Y142.049
G1 F1200 X78.149 Y116.616 E95.46465
G0 F6000 X78.149 Y116.05
G1 F1200 X104.149 Y142.049 E96.68758
G0 F6000 X104.714 Y142.049
G1 F1200 X78.149 Y115.484 E97.93712
G0 F6000 X78.149 Y114.918
G1 F1200 X105.28 Y142.049 E99.21328
G0 F6000 X105.846 Y142.049
G1 F1200 X78.149 Y114.353 E100.51604
G0 F6000 X78.149 Y113.787
G1 F1200 X106.411 Y142.049 E101.8454
G0 F6000 X106.977 Y142.049
G1 F1200 X78.149 Y113.221 E103.20138
G0 F6000 X78.149 Y112.656
G1 F1200 X107.543 Y142.049 E104.58396
G0 F6000 X108.108 Y142.049
G1 F1200 X78.149 Y112.09 E105.99314
G0 F6000 X78.149 Y111.524
G1 F1200 X108.674 Y142.049 E107.42894
G0 F6000 X109.24 Y142.049
G1 F1200 X78.149 Y110.959 E108.89134
G0 F6000 X78.149 Y110.393
G1 F1200 X109.805 Y142.049 E110.38034
G0 F6000 X110.371 Y142.049
G1 F1200 X78.149 Y109.827 E111.89597
G0 F6000 X78.149 Y109.262
G1 F1200 X110.937 Y142.049 E113.43819
G0 F6000 X111.502 Y142.049
G1 F1200 X78.149 Y108.696 E115.00701
G0 F6000 X78.149 Y108.13
G1 F1200 X112.068 Y142.049 E116.60246
G0 F6000 X112.634 Y142.049
G1 F1200 X78.149 Y107.565 E118.2245
G0 F6000 X78.149 Y106.999
G1 F1200 X113.2 Y142.049 E119.87317
G0 F6000 X113.765 Y142.049
G1 F1200 X78.149 Y106.433 E121.54844
G0 F6000 X78.149 Y105.868
G1 F1200 X114.331 Y142.049 E123.2503
G0 F6000 X114.897 Y142.049
G1 F1200 X78.149 Y105.302 E124.97879
G0 F6000 X78.149 Y104.736
G1 F1200 X115.462 Y142.049 E126.73388
G0 F6000 X116.028 Y142.049
