;FLAVOR:Marlin
;TIME:1434
;Filament used: 0.406367m
;Layer height: 0.2
;MINX:21.242
;MINY:64.812
;MINZ:0.2
;MAXX:175.603
;MAXY:175.817
;MAXZ:16.66
;Generated with Cura_SteamEngine 4.8.0
M140 S50
M105
M190 S50
M104 S200
M105
M109 S200
M82 ;absolute extrusion mode
; Ender 3 Custom Start G-code
G21        ;metric values
G90        ;absolute positioning
M82        ;set extruder to absolute mode
M107       ;start with the fan off
G28 X0 Y0  ;move X/Y to min endstops
G28 Z0     ;move Z to min endstops
G29; bed leveling
G1 Z15.0 F150.0 ;move the platform down 15mm
G92 E0                  ;zero the extruded length
G1 F200 E3              ;extrude 3mm of feed stock
G92 E0                  ;zero the extruded length again
G1 F150.0
;Put printing message on LCD screen
M117 Printing...
G92 E0
G92 E0
G1 F2700 E-5
;LAYER_COUNT:58
;LAYER:0
M107
G1 F300 Z0.4
G0 F6000 X157.251 Y150.311 Z0.4
;TYPE:SKIRT
G1 F300 Z0.2
G1 F2700 E0
G1 F1200 X157.821 Y149.764 E0.02628
G1 X158.178 Y149.473 E0.04159
G1 X158.713 Y149.062 E0.06403
G1 X159.363 Y148.613 E0.09031
G1 X160.055 Y148.232 E0.11658
G1 X160.5 Y148.032 E0.13281
G1 X161.14 Y147.769 E0.15582
G1 X161.885 Y147.507 E0.18209
G1 X162.652 Y147.32 E0.20835
G1 X163.083 Y147.251 E0.22287
G1 X163.749 Y147.163 E0.24521
G1 X164.536 Y147.1 E0.27147
G1 X165.326 Y147.116 E0.29775
G1 X165.799 Y147.164 E0.31356
G1 X166.476 Y147.254 E0.33628
G1 X167.252 Y147.398 E0.36253
G1 X168.01 Y147.619 E0.38879
G1 X168.43 Y147.779 E0.40374
G1 X169.056 Y148.038 E0.42627
G1 X169.769 Y148.376 E0.45251
G1 X170.445 Y148.785 E0.47879
G1 X170.818 Y149.054 E0.49409
G1 X171.357 Y149.467 E0.51667
G1 X171.959 Y149.978 E0.54294
G1 X172.506 Y150.548 E0.56921
G1 X172.803 Y150.912 E0.58484
G1 X173.217 Y151.452 E0.60747
G1 X173.665 Y152.102 E0.63373
G1 X174.045 Y152.795 E0.66001
G1 X174.239 Y153.226 E0.67573
G1 X174.497 Y153.852 E0.69825
G1 X174.76 Y154.596 E0.7245
G1 X174.947 Y155.363 E0.75076
G1 X175.017 Y155.795 E0.76531
G1 X175.107 Y156.471 E0.788
G1 X175.171 Y157.258 E0.81426
G1 X175.156 Y158.047 E0.8405
G1 X175.107 Y158.529 E0.85662
G1 X175.017 Y159.205 E0.8793
G1 X174.873 Y159.982 E0.90558
G1 X174.652 Y160.74 E0.93184
G1 X174.497 Y161.148 E0.94636
G1 X174.239 Y161.774 E0.96888
G1 X173.901 Y162.488 E0.99516
G1 X173.493 Y163.164 E1.02142
G1 X173.217 Y163.548 E1.03715
G1 X172.803 Y164.088 E1.05978
G1 X172.292 Y164.689 E1.08601
G1 X171.722 Y165.236 E1.11229
G1 X171.357 Y165.533 E1.12794
G1 X170.818 Y165.946 E1.15053
G1 X170.168 Y166.394 E1.17678
G1 X169.475 Y166.774 E1.20307
G1 X169.056 Y166.962 E1.21834
G1 X168.43 Y167.221 E1.24088
G1 X167.686 Y167.486 E1.26715
G1 X166.919 Y167.674 E1.29341
G1 X166.476 Y167.746 E1.30834
G1 X165.799 Y167.836 E1.33105
G1 X165.012 Y167.9 E1.35732
G1 X164.222 Y167.885 E1.3836
G1 X163.742 Y167.836 E1.39964
G1 X163.066 Y167.746 E1.42233
G1 X162.289 Y167.602 E1.44861
G1 X161.531 Y167.381 E1.47487
G1 X161.117 Y167.223 E1.48961
G1 X160.49 Y166.964 E1.51217
G1 X159.776 Y166.626 E1.53845
G1 X159.101 Y166.218 E1.56468
G1 X158.718 Y165.942 E1.58038
G1 X158.18 Y165.529 E1.60294
G1 X157.579 Y165.017 E1.6292
G1 X157.033 Y164.447 E1.65545
G1 X156.74 Y164.088 E1.67086
G1 X156.326 Y163.548 E1.6935
G1 X155.878 Y162.898 E1.71975
G1 X155.498 Y162.205 E1.74604
G1 X155.309 Y161.784 E1.76139
G1 X155.05 Y161.158 E1.78392
G1 X154.785 Y160.414 E1.81019
G1 X154.597 Y159.647 E1.83645
G1 X154.525 Y159.205 E1.85135
G1 X154.435 Y158.529 E1.87403
G1 X154.371 Y157.742 E1.90029
G1 X154.386 Y156.953 E1.92654
G1 X154.435 Y156.471 E1.94266
G1 X154.525 Y155.795 E1.96534
G1 X154.669 Y155.018 E1.99162
G1 X154.89 Y154.26 E2.01788
G1 X155.05 Y153.842 E2.03277
G1 X155.309 Y153.216 E2.0553
G1 X155.647 Y152.503 E2.08154
G1 X156.056 Y151.827 E2.10782
G1 X156.326 Y151.452 E2.12319
G1 X156.74 Y150.912 E2.14582
G1 X157.251 Y150.311 E2.17206
G0 F6000 X157.556 Y150.57
G1 F1200 X158.114 Y150.04 E2.19766
G1 X158.422 Y149.79 E2.21085
G1 X158.957 Y149.379 E2.23329
G1 X159.59 Y148.942 E2.25887
G1 X160.266 Y148.574 E2.28447
G1 X160.652 Y148.402 E2.29853
G1 X161.292 Y148.139 E2.32154
G1 X162.018 Y147.884 E2.34714
G1 X163.136 Y147.648 E2.38514
G1 X163.802 Y147.56 E2.40748
G1 X164.568 Y147.499 E2.43304
G1 X165.337 Y147.518 E2.45863
G1 X165.746 Y147.561 E2.47231
G1 X166.423 Y147.651 E2.49502
G1 X167.179 Y147.791 E2.52059
G1 X167.917 Y148.01 E2.5462
G1 X168.277 Y148.148 E2.55902
G1 X168.903 Y148.407 E2.58155
G1 X169.598 Y148.738 E2.60716
G1 X170.254 Y149.139 E2.63273
G1 X170.575 Y149.371 E2.6459
G1 X171.114 Y149.784 E2.66849
G1 X171.699 Y150.283 E2.69406
G1 X172.23 Y150.84 E2.71966
G1 X172.486 Y151.156 E2.73318
G1 X172.9 Y151.696 E2.75581
G1 X173.335 Y152.33 E2.78139
G1 X173.703 Y153.005 E2.80696
G1 X173.869 Y153.378 E2.82054
G1 X174.127 Y154.004 E2.84306
G1 X174.382 Y154.73 E2.86865
G1 X174.62 Y155.847 E2.90663
G1 X174.71 Y156.523 E2.92932
G1 X174.772 Y157.29 E2.95491
G1 X174.754 Y158.059 E2.98049
G1 X174.71 Y158.477 E2.99447
G1 X174.62 Y159.153 E3.01716
G1 X174.479 Y159.909 E3.04273
G1 X174.127 Y160.996 E3.08074
G1 X173.869 Y161.622 E3.10326
G1 X173.539 Y162.317 E3.12885
G1 X173.139 Y162.974 E3.15443
G1 X172.9 Y163.304 E3.16798
G1 X172.486 Y163.844 E3.19061
G1 X171.987 Y164.43 E3.21621
G1 X171.429 Y164.96 E3.24181
G1 X171.114 Y165.216 E3.25531
G1 X170.575 Y165.629 E3.27789
G1 X169.941 Y166.064 E3.30347
G1 X169.265 Y166.432 E3.32907
G1 X168.903 Y166.593 E3.34224
G1 X168.277 Y166.852 E3.36478
G1 X167.552 Y167.109 E3.39036
G1 X166.804 Y167.289 E3.41595
G1 X166.423 Y167.349 E3.42878
G1 X165.746 Y167.439 E3.45149
G1 X164.979 Y167.501 E3.47709
G1 X164.211 Y167.483 E3.50264
G1 X163.794 Y167.439 E3.51658
G1 X163.118 Y167.349 E3.53927
G1 X162.362 Y167.208 E3.56484
G1 X161.27 Y166.853 E3.60304
G1 X160.643 Y166.594 E3.6256
G1 X159.948 Y166.264 E3.65119
G1 X159.291 Y165.864 E3.67677
G1 X158.962 Y165.625 E3.6903
G1 X158.424 Y165.212 E3.71285
G1 X157.839 Y164.712 E3.73845
G1 X157.309 Y164.155 E3.76402
G1 X157.057 Y163.844 E3.77734
G1 X156.643 Y163.304 E3.79997
G1 X156.208 Y162.67 E3.82554
G1 X155.84 Y161.995 E3.85111
G1 X155.678 Y161.631 E3.86436
G1 X155.419 Y161.005 E3.8869
G1 X155.162 Y160.28 E3.91248
G1 X154.922 Y159.153 E3.9508
G1 X154.832 Y158.477 E3.97349
G1 X154.77 Y157.71 E3.99908
G1 X154.788 Y156.941 E4.02466
G1 X154.832 Y156.523 E4.03864
G1 X154.922 Y155.847 E4.06133
G1 X155.063 Y155.091 E4.0869
G1 X155.419 Y153.995 E4.12523
G1 X155.678 Y153.369 E4.14776
G1 X156.009 Y152.674 E4.17337
G1 X156.41 Y152.018 E4.19894
G1 X156.643 Y151.696 E4.21216
G1 X157.057 Y151.156 E4.23479
G1 X157.556 Y150.57 E4.26039
G0 F6000 X157.861 Y150.83
G1 F1200 X158.666 Y150.107 E4.29638
G1 X159.201 Y149.696 E4.31882
G1 X159.817 Y149.273 E4.34367
G1 X160.804 Y148.772 E4.38049
G1 X161.444 Y148.509 E4.4035
G1 X162.15 Y148.262 E4.42838
G1 X163.188 Y148.044 E4.46365
G1 X163.854 Y147.956 E4.486
G1 X164.6 Y147.898 E4.51088
G1 X165.693 Y147.957 E4.54729
G1 X166.37 Y148.047 E4.57001
G1 X167.106 Y148.185 E4.59491
G1 X168.124 Y148.518 E4.63054
G1 X168.75 Y148.777 E4.65307
G1 X169.425 Y149.099 E4.67794
G1 X170.332 Y149.689 E4.71393
G1 X170.871 Y150.102 E4.73652
G1 X171.439 Y150.588 E4.76138
G1 X172.168 Y151.399 E4.79765
G1 X172.582 Y151.939 E4.82028
G1 X173.005 Y152.556 E4.84516
G1 X173.499 Y153.531 E4.88151
G1 X173.757 Y154.157 E4.90403
G1 X174.005 Y154.863 E4.92892
G1 X174.224 Y155.9 E4.96417
G1 X174.314 Y156.576 E4.98686
G1 X174.373 Y157.322 E5.01175
G1 X174.314 Y158.424 E5.04845
G1 X174.224 Y159.1 E5.07113
G1 X174.086 Y159.835 E5.09601
G1 X173.757 Y160.843 E5.13127
G1 X173.499 Y161.469 E5.15379
G1 X173.177 Y162.145 E5.1787
G1 X172.582 Y163.061 E5.21503
G1 X172.168 Y163.601 E5.23766
G1 X171.682 Y164.17 E5.26255
G1 X170.871 Y164.898 E5.2988
G1 X170.332 Y165.311 E5.32138
G1 X169.714 Y165.734 E5.34629
G1 X168.75 Y166.223 E5.38224
G1 X168.124 Y166.482 E5.40477
G1 X167.419 Y166.731 E5.42964
G1 X166.37 Y166.953 E5.4653
G1 X165.693 Y167.043 E5.48802
G1 X164.948 Y167.102 E5.51288
G1 X163.847 Y167.043 E5.54955
G1 X163.171 Y166.953 E5.57223
G1 X162.436 Y166.815 E5.5971
G1 X161.422 Y166.484 E5.63258
G1 X160.795 Y166.225 E5.65514
G1 X160.12 Y165.903 E5.68002
G1 X159.206 Y165.308 E5.71629
G1 X158.668 Y164.895 E5.73885
G1 X158.099 Y164.408 E5.76376
G1 X157.375 Y163.601 E5.79982
G1 X156.961 Y163.061 E5.82245
G1 X156.538 Y162.444 E5.84733
G1 X156.048 Y161.478 E5.88336
G1 X155.789 Y160.852 E5.90589
G1 X155.54 Y160.147 E5.93076
G1 X155.318 Y159.1 E5.96636
G1 X155.228 Y158.424 E5.98904
G1 X155.169 Y157.678 E6.01393
G1 X155.228 Y156.576 E6.05063
G1 X155.318 Y155.9 E6.07332
G1 X155.456 Y155.165 E6.09819
G1 X155.789 Y154.148 E6.13378
G1 X156.048 Y153.522 E6.15631
G1 X156.37 Y152.847 E6.18119
G1 X156.961 Y151.939 E6.21722
G1 X157.375 Y151.399 E6.23985
G1 X157.861 Y150.83 E6.26474
G0 F6000 X158.165 Y151.091
G1 F1200 X158.909 Y150.424 E6.29798
G1 X159.444 Y150.013 E6.32042
G1 X160.044 Y149.603 E6.34459
G1 X160.956 Y149.142 E6.37857
G1 X161.596 Y148.879 E6.40159
G1 X162.282 Y148.641 E6.42574
G1 X163.24 Y148.441 E6.45829
G1 X163.906 Y148.353 E6.48063
G1 X164.631 Y148.297 E6.50482
G1 X165.641 Y148.354 E6.53846
G1 X166.318 Y148.444 E6.56118
G1 X167.031 Y148.579 E6.58531
G1 X167.971 Y148.887 E6.61821
G1 X168.597 Y149.146 E6.64075
G1 X169.252 Y149.461 E6.66492
G1 X170.088 Y150.006 E6.69811
G1 X170.627 Y150.419 E6.7207
G1 X171.179 Y150.892 E6.74488
G1 X171.851 Y151.642 E6.77837
G1 X172.265 Y152.182 E6.801
G1 X172.674 Y152.782 E6.82515
G1 X173.129 Y153.683 E6.85872
G1 X173.387 Y154.309 E6.88124
G1 X173.626 Y154.995 E6.90541
G1 X173.827 Y155.953 E6.93796
G1 X173.917 Y156.629 E6.96064
G1 X173.973 Y157.353 E6.9848
G1 X173.917 Y158.371 E7.01871
G1 X173.827 Y159.047 E7.04139
G1 X173.692 Y159.761 E7.06556
G1 X173.387 Y160.691 E7.09811
G1 X173.129 Y161.317 E7.12063
G1 X172.816 Y161.972 E7.14478
G1 X172.265 Y162.818 E7.17836
G1 X171.851 Y163.358 E7.20099
G1 X171.378 Y163.909 E7.22514
G1 X170.627 Y164.581 E7.25866
G1 X170.088 Y164.994 E7.28124
G1 X169.488 Y165.403 E7.30539
G1 X168.597 Y165.854 E7.33861
G1 X167.971 Y166.113 E7.36114
G1 X167.286 Y166.353 E7.38528
G1 X166.318 Y166.556 E7.41818
G1 X165.641 Y166.646 E7.44089
G1 X164.917 Y166.702 E7.46505
G1 X163.9 Y166.646 E7.49892
G1 X163.224 Y166.556 E7.52161
G1 X162.51 Y166.421 E7.54577
G1 X161.575 Y166.114 E7.57851
G1 X160.948 Y165.855 E7.60107
G1 X160.293 Y165.541 E7.62523
G1 X159.449 Y164.99 E7.65875
G1 X158.911 Y164.577 E7.68131
G1 X158.36 Y164.104 E7.70546
G1 X157.692 Y163.358 E7.73877
G1 X157.278 Y162.818 E7.7614
G1 X156.869 Y162.218 E7.78555
G1 X156.417 Y161.325 E7.81884
G1 X156.158 Y160.699 E7.84137
G1 X155.918 Y160.014 E7.86552
G1 X155.715 Y159.047 E7.89838
G1 X155.625 Y158.371 E7.92106
G1 X155.569 Y157.647 E7.94521
G1 X155.625 Y156.629 E7.97912
G1 X155.715 Y155.953 E8.00181
G1 X155.85 Y155.239 E8.02597
G1 X156.158 Y154.301 E8.05881
G1 X156.417 Y153.675 E8.08134
G1 X156.732 Y153.02 E8.10552
G1 X157.278 Y152.182 E8.13878
G1 X157.692 Y151.642 E8.16141
G1 X158.165 Y151.091 E8.18557
G0 F6000 X158.469 Y151.352
G1 F1200 X159.153 Y150.741 E8.21607
G1 X159.688 Y150.33 E8.23851
G1 X160.27 Y149.934 E8.26192
G1 X161.108 Y149.512 E8.29313
G1 X161.748 Y149.249 E8.31614
G1 X162.414 Y149.019 E8.33958
G1 X163.293 Y148.837 E8.36944
G1 X163.959 Y148.749 E8.39178
G1 X164.661 Y148.697 E8.41519
G1 X165.588 Y148.75 E8.44607
G1 X166.265 Y148.84 E8.46879
G1 X166.956 Y148.972 E8.49219
G1 X167.818 Y149.257 E8.52238
G1 X168.444 Y149.516 E8.54492
G1 X169.078 Y149.822 E8.56833
G1 X169.845 Y150.324 E8.59882
G1 X170.384 Y150.737 E8.6214
G1 X170.918 Y151.196 E8.64483
G1 X171.533 Y151.886 E8.67557
G1 X171.947 Y152.426 E8.6982
G1 X172.343 Y153.008 E8.72161
G1 X172.759 Y153.836 E8.75243
G1 X173.017 Y154.462 E8.77495
G1 X173.248 Y155.127 E8.79837
G1 X173.431 Y156.006 E8.82823
G1 X173.521 Y156.682 E8.85091
G1 X173.574 Y157.384 E8.87433
G1 X173.521 Y158.318 E8.90544
G1 X173.431 Y158.994 E8.92812
G1 X173.298 Y159.686 E8.95156
G1 X173.017 Y160.538 E8.9814
G1 X172.759 Y161.164 E9.00392
G1 X172.454 Y161.799 E9.02735
G1 X171.947 Y162.574 E9.05815
G1 X171.533 Y163.114 E9.08078
G1 X171.074 Y163.648 E9.1042
G1 X170.384 Y164.263 E9.13495
G1 X169.845 Y164.676 E9.15753
G1 X169.263 Y165.072 E9.18094
G1 X168.444 Y165.484 E9.21144
G1 X167.818 Y165.743 E9.23397
G1 X167.154 Y165.975 E9.25736
G1 X166.265 Y166.16 E9.28757
G1 X165.588 Y166.25 E9.31028
G1 X164.886 Y166.303 E9.3337
G1 X163.953 Y166.25 E9.36478
G1 X163.277 Y166.16 E9.38746
G1 X162.585 Y166.027 E9.4109
G1 X161.728 Y165.744 E9.44091
G1 X161.101 Y165.485 E9.46348
G1 X160.467 Y165.18 E9.48688
G1 X159.693 Y164.673 E9.51765
G1 X159.155 Y164.26 E9.54021
G1 X158.621 Y163.8 E9.56365
G1 X158.01 Y163.114 E9.59421
G1 X157.596 Y162.574 E9.61684
G1 X157.2 Y161.992 E9.64025
G1 X156.787 Y161.172 E9.67079
G1 X156.528 Y160.546 E9.69332
G1 X156.296 Y159.882 E9.71672
G1 X156.111 Y158.994 E9.74689
G1 X156.021 Y158.318 E9.76957
G1 X155.968 Y157.616 E9.79298
G1 X156.021 Y156.682 E9.8241
G1 X156.111 Y156.006 E9.84678
G1 X156.244 Y155.314 E9.87022
G1 X156.528 Y154.454 E9.90034
G1 X156.787 Y153.828 E9.92287
G1 X157.093 Y153.194 E9.94629
G1 X157.596 Y152.426 E9.97682
G1 X158.01 Y151.886 E9.99945
G1 X158.469 Y151.352 E10.02287
G0 F6000 X158.772 Y151.614
G1 F1200 X159.397 Y151.059 E10.05067
G1 X159.932 Y150.648 E10.07311
G1 X160.495 Y150.265 E10.09576
G1 X161.26 Y149.882 E10.12422
G1 X161.9 Y149.619 E10.14723
G1 X162.544 Y149.398 E10.16987
G1 X163.345 Y149.234 E10.19707
G1 X164.011 Y149.146 E10.21941
G1 X164.69 Y149.097 E10.24205
G1 X165.535 Y149.147 E10.27021
G1 X166.212 Y149.237 E10.29292
G1 X166.881 Y149.366 E10.31558
G1 X167.665 Y149.627 E10.34307
G1 X168.291 Y149.886 E10.3656
G1 X168.904 Y150.182 E10.38824
G1 X169.602 Y150.641 E10.41603
G1 X170.141 Y151.054 E10.43861
G1 X170.656 Y151.499 E10.46125
G1 X171.216 Y152.129 E10.48928
G1 X171.63 Y152.669 E10.51192
G1 X172.012 Y153.233 E10.53457
G1 X172.389 Y153.988 E10.56264
G1 X172.647 Y154.614 E10.58516
G1 X172.869 Y155.258 E10.60782
G1 X173.034 Y156.059 E10.63502
G1 X173.124 Y156.735 E10.6577
G1 X173.174 Y157.414 E10.68034
G1 X173.124 Y158.265 E10.7087
G1 X173.034 Y158.941 E10.73138
G1 X172.905 Y159.61 E10.75404
G1 X172.647 Y160.386 E10.78124
G1 X172.389 Y161.012 E10.80376
G1 X172.093 Y161.625 E10.8264
G1 X171.63 Y162.331 E10.85448
G1 X171.216 Y162.871 E10.87711
G1 X170.771 Y163.386 E10.89975
G1 X170.141 Y163.946 E10.92779
G1 X169.602 Y164.359 E10.95037
G1 X169.038 Y164.741 E10.97303
G1 X168.291 Y165.114 E11.0008
G1 X167.665 Y165.373 E11.02333
G1 X167.022 Y165.596 E11.04597
G1 X166.212 Y165.763 E11.07347
G1 X165.535 Y165.853 E11.09619
G1 X164.856 Y165.903 E11.11883
G1 X164.006 Y165.853 E11.14715
G1 X163.33 Y165.763 E11.16984
G1 X162.661 Y165.634 E11.1925
G1 X161.881 Y165.375 E11.21983
G1 X161.254 Y165.116 E11.2424
G1 X160.641 Y164.819 E11.26505
G1 X159.936 Y164.356 E11.2931
G1 X159.398 Y163.943 E11.31566
G1 X158.883 Y163.497 E11.33832
G1 X158.327 Y162.871 E11.36617
G1 X157.913 Y162.331 E11.3888
G1 X157.531 Y161.767 E11.41146
G1 X157.157 Y161.019 E11.43927
G1 X156.898 Y160.393 E11.46181
G1 X156.675 Y159.75 E11.48444
G1 X156.508 Y158.941 E11.51192
G1 X156.418 Y158.265 E11.5346
G1 X156.368 Y157.586 E11.55724
G1 X156.418 Y156.735 E11.5856
G1 X156.508 Y156.059 E11.60828
G1 X156.637 Y155.39 E11.63094
G1 X156.898 Y154.607 E11.65839
G1 X157.157 Y153.981 E11.68092
G1 X157.453 Y153.368 E11.70356
G1 X157.913 Y152.669 E11.7314
G1 X158.327 Y152.129 E11.75403
G1 X158.772 Y151.614 E11.77666
G0 F6000 X159.075 Y151.876
G1 F1200 X159.64 Y151.376 E11.80176
G1 X160.175 Y150.965 E11.8242
G1 X160.72 Y150.597 E11.84607
G1 X161.412 Y150.252 E11.87179
G1 X162.052 Y149.989 E11.8948
G1 X162.674 Y149.777 E11.91666
G1 X163.398 Y149.631 E11.94122
G1 X164.064 Y149.543 E11.96357
G1 X164.719 Y149.496 E11.98541
G1 X165.483 Y149.543 E12.01087
G1 X166.16 Y149.633 E12.03358
G1 X166.804 Y149.759 E12.05541
G1 X167.512 Y149.996 E12.08024
G1 X168.138 Y150.255 E12.10277
G1 X168.729 Y150.543 E12.12464
G1 X169.358 Y150.959 E12.14972
G1 X169.897 Y151.372 E12.17231
G1 X170.394 Y151.802 E12.19416
G1 X170.898 Y152.372 E12.21947
G1 X171.312 Y152.912 E12.2421
G1 X171.68 Y153.457 E12.26397
G1 X172.02 Y154.14 E12.28935
G1 X172.278 Y154.766 E12.31187
