;FLAVOR:Marlin
;TIME:4476
;Filament used: 2.06726m
;Layer height: 0.2
;MINX:34.792
;MINY:74.831
;MINZ:0.2
;MAXX:202.44
;MAXY:143.432
;MAXZ:8.6
;Generated with Cura_SteamEngine 4.8.0
M140 S50
M105
M190 S50
M104 S200
M105
M109 S200
M82 ;absolute extrusion mode
; Ender 3 Custom Start G-code
G21        ;metric values
G90        ;absolute positioning
M82        ;set extruder to absolute mode
M107       ;start with the fan off
G28 X0 Y0  ;move X/Y to min endstops
G28 Z0     ;move Z to min endstops
G29; bed leveling
G1 Z15.0 F150.0 ;move the platform down 15mm
G92 E0                  ;zero the extruded length
G1 F200 E3              ;extrude 3mm of feed stock
G92 E0                  ;zero the extruded length again
G1 F150.0
;Put printing message on LCD screen
M117 Printing...
G92 E0
G92 E0
G1 F2700 E-5
;LAYER_COUNT:18
;LAYER:0
M107
G0 F6000 X40.997 Y76.538 Z0.2
;TYPE:SKIRT
G1 F2700 E0
G1 F1200 X41.823 Y76.094 E0.03119
G1 X42.576 Y75.763 E0.05855
G1 X42.804 Y75.673 E0.0667
G1 X43.69 Y75.366 E0.09789
G1 X44.6 Y75.136 E0.12911
G1 X45.204 Y75.028 E0.14951
G1 X45.622 Y74.965 E0.16357
G1 X46.909 Y74.848 E0.20656
G1 X47.396 Y74.835 E0.22276
G1 X47.701 Y74.832 E0.2329
G1 X68.218 Y74.831 E0.9153
G1 X69.082 Y74.842 E0.94404
G1 X70.013 Y74.895 E0.97506
G1 X70.134 Y74.907 E0.9791
G1 X70.616 Y74.965 E0.99525
G1 X70.859 Y75 E1.00341
G1 X71.781 Y75.174 E1.03462
G1 X72.685 Y75.425 E1.06583
G1 X73.361 Y75.669 E1.08973
G1 X73.71 Y75.808 E1.10222
G1 X74.566 Y76.192 E1.13343
G1 X75.386 Y76.647 E1.16462
G1 X76.222 Y77.214 E1.19822
G1 X76.542 Y77.453 E1.2115
G1 X77.269 Y78.046 E1.2427
G1 X77.943 Y78.698 E1.27389
G1 X78.563 Y79.411 E1.30532
G1 X78.712 Y79.598 E1.31327
G1 X79.265 Y80.356 E1.34448
G1 X79.562 Y80.828 E1.36303
G1 X79.681 Y81.028 E1.37077
G1 X80.126 Y81.854 E1.40198
G1 X80.438 Y82.56 E1.42765
G1 X80.529 Y82.787 E1.43578
G1 X80.841 Y83.672 E1.46699
G1 X81.076 Y84.579 E1.49816
G1 X81.193 Y85.221 E1.51986
G1 X81.256 Y85.634 E1.53376
G1 X81.377 Y86.952 E1.57778
G1 X81.389 Y87.396 E1.59255
G1 X81.392 Y87.693 E1.60243
G1 X81.392 Y130.419 E3.0235
G1 X81.382 Y131.115 E3.04665
G1 X81.343 Y131.896 E3.07266
G1 X81.334 Y132.001 E3.07617
G1 X81.254 Y132.68 E3.09891
G1 X81.214 Y132.949 E3.10795
G1 X81.037 Y133.87 E3.13914
G1 X80.782 Y134.772 E3.17032
G1 X80.561 Y135.382 E3.1919
G1 X80.42 Y135.738 E3.20464
G1 X80.038 Y136.594 E3.23581
G1 X79.584 Y137.415 E3.26702
G1 X79.009 Y138.266 E3.30118
G1 X78.806 Y138.538 E3.31246
G1 X78.462 Y138.975 E3.33096
G1 X77.837 Y139.675 E3.36217
G1 X76.835 Y140.583 E3.40715
G1 X76.649 Y140.732 E3.41508
G1 X75.893 Y141.287 E3.44627
G1 X75.452 Y141.567 E3.46364
G1 X75.248 Y141.69 E3.47157
G1 X74.425 Y142.14 E3.50276
G1 X73.63 Y142.493 E3.53169
G1 X73.406 Y142.582 E3.53971
G1 X72.52 Y142.89 E3.57091
G1 X71.611 Y143.123 E3.60212
G1 X70.972 Y143.238 E3.62372
G1 X70.551 Y143.301 E3.63787
G1 X69.275 Y143.416 E3.68049
G1 X68.789 Y143.429 E3.69666
G1 X68.483 Y143.432 E3.70683
G1 X47.803 Y143.431 E4.39465
G1 X47.105 Y143.421 E4.41787
G1 X46.283 Y143.378 E4.44525
G1 X46.16 Y143.367 E4.44936
G1 X45.502 Y143.288 E4.4714
G1 X45.263 Y143.252 E4.47944
G1 X44.342 Y143.073 E4.51064
G1 X43.44 Y142.816 E4.54184
G1 X42.924 Y142.631 E4.56007
G1 X42.563 Y142.491 E4.57295
G1 X41.704 Y142.115 E4.60414
G1 X40.88 Y141.667 E4.63533
G1 X39.927 Y141.025 E4.67355
G1 X39.612 Y140.788 E4.68666
G1 X38.887 Y140.193 E4.71785
G1 X38.216 Y139.538 E4.74904
G1 X37.646 Y138.883 E4.77792
G1 X37.516 Y138.721 E4.78483
G1 X37.237 Y138.358 E4.80006
G1 X37.17 Y138.267 E4.80382
G1 X36.647 Y137.489 E4.835
G1 X36.191 Y136.669 E4.8662
G1 X35.962 Y136.18 E4.88416
G1 X35.799 Y135.81 E4.89761
G1 X35.457 Y134.936 E4.92883
G1 X35.192 Y134.037 E4.96
G1 X34.995 Y133.063 E4.99305
G1 X34.931 Y132.651 E5.00692
G1 X34.805 Y131.271 E5.05301
G1 X34.794 Y130.807 E5.06844
G1 X34.792 Y130.572 E5.07626
G1 X34.793 Y87.826 E6.498
G1 X34.803 Y87.143 E6.52072
G1 X34.845 Y86.332 E6.54773
G1 X34.856 Y86.208 E6.55187
G1 X34.931 Y85.573 E6.57313
G1 X34.966 Y85.336 E6.5811
G1 X35.142 Y84.415 E6.61229
G1 X35.397 Y83.512 E6.6435
G1 X35.594 Y82.96 E6.66299
G1 X35.735 Y82.597 E6.67594
G1 X36.112 Y81.738 E6.70715
G1 X36.56 Y80.914 E6.73834
G1 X37.189 Y79.98 E6.77579
G1 X37.426 Y79.664 E6.78893
G1 X38.02 Y78.938 E6.82013
G1 X38.674 Y78.266 E6.85132
G1 X39.371 Y77.661 E6.88202
G1 X39.558 Y77.512 E6.88997
G1 X40.316 Y76.959 E6.92118
G1 X40.795 Y76.658 E6.93999
G1 X40.997 Y76.538 E6.94781
G0 F6000 X41.201 Y76.882
G1 F1200 X42.012 Y76.446 E6.97843
G1 X42.723 Y76.135 E7.00424
G1 X42.951 Y76.045 E7.0124
G1 X43.821 Y75.745 E7.043
G1 X44.714 Y75.521 E7.07363
G1 X45.263 Y75.423 E7.09217
G1 X45.681 Y75.36 E7.10623
G1 X46.922 Y75.247 E7.14768
G1 X47.172 Y75.239 E7.156
G1 X47.701 Y75.232 E7.1736
G1 X68.218 Y75.231 E7.85599
G1 X69.077 Y75.242 E7.88457
G1 X69.973 Y75.293 E7.91442
G1 X70.094 Y75.305 E7.91846
G1 X70.559 Y75.361 E7.93404
G1 X70.802 Y75.396 E7.9422
G1 X71.707 Y75.567 E7.97284
G1 X72.593 Y75.816 E8.00345
G1 X73.213 Y76.04 E8.02537
G1 X73.562 Y76.179 E8.03787
G1 X74.402 Y76.557 E8.0685
G1 X75.206 Y77.006 E8.09913
G1 X75.983 Y77.534 E8.13038
G1 X76.303 Y77.773 E8.14366
G1 X77.016 Y78.356 E8.17429
G1 X77.676 Y78.998 E8.20492
G1 X78.25 Y79.66 E8.23406
G1 X78.399 Y79.847 E8.24201
G1 X78.941 Y80.592 E8.27266
G1 X79.218 Y81.033 E8.28998
G1 X79.337 Y81.233 E8.29772
G1 X79.773 Y82.044 E8.32834
G1 X80.067 Y82.709 E8.35253
G1 X80.158 Y82.936 E8.36066
G1 X80.463 Y83.804 E8.39126
G1 X80.692 Y84.696 E8.42189
G1 X80.798 Y85.282 E8.4417
G1 X80.861 Y85.695 E8.45559
G1 X80.977 Y86.964 E8.49798
G1 X80.989 Y87.402 E8.51255
G1 X80.992 Y87.693 E8.52223
G1 X80.992 Y130.413 E9.9431
G1 X80.982 Y131.109 E9.96625
G1 X80.944 Y131.862 E9.99133
G1 X80.935 Y131.967 E9.99483
G1 X80.859 Y132.621 E10.01673
G1 X80.819 Y132.89 E10.02578
G1 X80.644 Y133.794 E10.0564
G1 X80.391 Y134.679 E10.08702
G1 X80.189 Y135.234 E10.10666
G1 X80.048 Y135.59 E10.1194
G1 X79.672 Y136.431 E10.15004
G1 X79.225 Y137.235 E10.18063
G1 X78.688 Y138.027 E10.21246
G1 X78.485 Y138.299 E10.22375
G1 X78.153 Y138.722 E10.24163
G1 X77.538 Y139.407 E10.27225
G1 X76.585 Y140.271 E10.31504
G1 X76.399 Y140.42 E10.32296
G1 X75.656 Y140.964 E10.35359
G1 X75.245 Y141.225 E10.36978
G1 X75.041 Y141.348 E10.37771
G1 X74.233 Y141.788 E10.40831
G1 X73.482 Y142.121 E10.43563
G1 X73.258 Y142.21 E10.44365
G1 X72.388 Y142.512 E10.47428
G1 X71.496 Y142.738 E10.50488
G1 X70.913 Y142.842 E10.52458
G1 X70.492 Y142.905 E10.53874
G1 X69.262 Y143.017 E10.57982
G1 X69.012 Y143.025 E10.58814
G1 X68.483 Y143.032 E10.60573
G1 X47.809 Y143.031 E11.29335
G1 X47.111 Y143.021 E11.31657
G1 X46.319 Y142.98 E11.34295
G1 X46.196 Y142.969 E11.34706
G1 X45.561 Y142.893 E11.36833
G1 X45.322 Y142.857 E11.37637
G1 X44.419 Y142.68 E11.40697
G1 X43.534 Y142.426 E11.43759
G1 X43.068 Y142.258 E11.45407
G1 X42.707 Y142.118 E11.46695
G1 X41.864 Y141.748 E11.49757
G1 X41.056 Y141.306 E11.5282
G1 X40.167 Y140.705 E11.56389
G1 X39.852 Y140.468 E11.577
G1 X39.141 Y139.883 E11.60763
G1 X38.484 Y139.239 E11.63823
G1 X37.958 Y138.632 E11.66494
G1 X37.828 Y138.47 E11.67185
G1 X37.559 Y138.121 E11.6865
G1 X37.492 Y138.03 E11.69026
G1 X36.979 Y137.265 E11.7209
G1 X36.534 Y136.459 E11.75152
G1 X36.328 Y136.018 E11.76771
G1 X36.165 Y135.648 E11.78116
G1 X35.83 Y134.791 E11.81176
G1 X35.572 Y133.907 E11.84239
G1 X35.391 Y133.002 E11.87309
G1 X35.327 Y132.59 E11.88695
G1 X35.205 Y131.26 E11.93138
G1 X35.194 Y130.803 E11.94658
G1 X35.192 Y130.568 E11.9544
G1 X35.193 Y87.832 E13.3758
G1 X35.203 Y87.149 E13.39852
G1 X35.243 Y86.367 E13.42456
G1 X35.254 Y86.243 E13.4287
G1 X35.327 Y85.631 E13.4492
G1 X35.362 Y85.394 E13.45717
G1 X35.536 Y84.49 E13.48779
G1 X35.787 Y83.605 E13.51839
G1 X35.967 Y83.105 E13.53606
G1 X36.108 Y82.742 E13.54901
G1 X36.479 Y81.899 E13.57965
G1 X36.921 Y81.092 E13.61025
G1 X37.509 Y80.22 E13.64523
G1 X37.746 Y79.904 E13.65837
G1 X38.33 Y79.192 E13.689
G1 X38.973 Y78.534 E13.7196
G1 X39.62 Y77.974 E13.74806
G1 X39.807 Y77.825 E13.75601
G1 X40.552 Y77.283 E13.78665
G1 X40.999 Y77.002 E13.80421
G1 X41.201 Y76.882 E13.81203
G0 F6000 X41.405 Y77.226
G1 F1200 X42.202 Y76.799 E13.8421
G1 X42.87 Y76.507 E13.86635
G1 X43.098 Y76.417 E13.8745
G1 X43.952 Y76.123 E13.90454
G1 X44.828 Y75.906 E13.93456
G1 X45.323 Y75.819 E13.95127
G1 X45.741 Y75.756 E13.96533
G1 X46.935 Y75.647 E14.00521
G1 X47.185 Y75.639 E14.01353
G1 X47.702 Y75.632 E14.03073
G1 X68.219 Y75.631 E14.71313
G1 X69.071 Y75.642 E14.74147
G1 X69.934 Y75.691 E14.77022
G1 X70.055 Y75.703 E14.77426
G1 X70.502 Y75.757 E14.78924
G1 X70.745 Y75.792 E14.7974
G1 X71.632 Y75.96 E14.82743
G1 X72.501 Y76.206 E14.85747
G1 X73.065 Y76.412 E14.87744
G1 X73.414 Y76.551 E14.88993
G1 X74.238 Y76.922 E14.91999
G1 X75.025 Y77.364 E14.95001
G1 X75.744 Y77.855 E14.97897
G1 X76.064 Y78.094 E14.99225
G1 X76.763 Y78.666 E15.02229
G1 X77.408 Y79.297 E15.0523
G1 X77.937 Y79.91 E15.07923
G1 X78.086 Y80.097 E15.08719
G1 X78.617 Y80.827 E15.11721
G1 X78.875 Y81.237 E15.13332
G1 X78.994 Y81.437 E15.14106
G1 X79.421 Y82.233 E15.17111
G1 X79.696 Y82.858 E15.19382
G1 X79.787 Y83.085 E15.20195
G1 X80.085 Y83.937 E15.23197
G1 X80.307 Y84.812 E15.262
G1 X80.402 Y85.342 E15.27991
G1 X80.465 Y85.755 E15.2938
G1 X80.577 Y86.977 E15.33462
G1 X80.589 Y87.407 E15.34892
G1 X80.592 Y87.693 E15.35844
G1 X80.592 Y130.408 E16.77914
G1 X80.582 Y131.104 E16.80229
G1 X80.546 Y131.828 E16.82641
G1 X80.537 Y131.933 E16.82991
G1 X80.463 Y132.562 E16.85098
G1 X80.423 Y132.831 E16.86002
G1 X80.251 Y133.718 E16.89007
G1 X80.001 Y134.586 E16.92012
G1 X79.817 Y135.087 E16.93787
G1 X79.676 Y135.443 E16.9506
G1 X79.307 Y136.267 E16.98063
G1 X78.866 Y137.055 E17.01067
G1 X78.367 Y137.788 E17.04016
G1 X78.164 Y138.06 E17.05145
G1 X77.843 Y138.468 E17.06871
G1 X77.24 Y139.14 E17.09874
G1 X76.335 Y139.959 E17.13934
G1 X76.149 Y140.108 E17.14727
G1 X75.039 Y140.882 E17.19227
G1 X74.835 Y141.005 E17.2002
G1 X74.041 Y141.437 E17.23026
G1 X73.334 Y141.749 E17.25596
G1 X73.11 Y141.838 E17.26398
G1 X72.257 Y142.134 E17.29401
G1 X71.381 Y142.354 E17.32405
G1 X70.854 Y142.447 E17.34185
G1 X70.433 Y142.51 E17.35601
G1 X69.249 Y142.617 E17.39555
G1 X68.999 Y142.625 E17.40387
G1 X68.483 Y142.632 E17.42103
G1 X47.815 Y142.631 E18.10845
G1 X47.117 Y142.621 E18.13167
G1 X46.354 Y142.581 E18.15708
G1 X46.231 Y142.57 E18.16119
G1 X45.621 Y142.497 E18.18162
G1 X45.382 Y142.461 E18.18966
G1 X44.496 Y142.287 E18.21969
G1 X43.213 Y141.885 E18.26441
G1 X42.852 Y141.745 E18.27729
G1 X42.025 Y141.381 E18.30734
G1 X41.234 Y140.946 E18.33737
G1 X40.408 Y140.386 E18.37056
G1 X40.093 Y140.149 E18.38367
G1 X39.396 Y139.574 E18.41372
G1 X38.752 Y138.941 E18.44376
G1 X38.27 Y138.382 E18.46831
G1 X38.14 Y138.22 E18.47522
G1 X37.881 Y137.884 E18.48933
G1 X37.814 Y137.793 E18.49308
G1 X37.311 Y137.042 E18.52315
G1 X36.694 Y135.857 E18.56758
G1 X36.531 Y135.487 E18.58103
G1 X36.204 Y134.645 E18.61107
G1 X35.952 Y133.778 E18.6411
G1 X35.786 Y132.941 E18.66949
G1 X35.722 Y132.529 E18.68335
G1 X35.605 Y131.248 E18.72614
G1 X35.594 Y130.8 E18.74104
G1 X35.592 Y130.565 E18.74886
G1 X35.593 Y87.838 E20.16996
G1 X35.603 Y87.155 E20.19268
G1 X35.642 Y86.403 E20.21773
G1 X35.653 Y86.279 E20.22187
G1 X35.722 Y85.69 E20.24159
G1 X35.757 Y85.453 E20.24956
G1 X35.929 Y84.566 E20.27961
G1 X36.178 Y83.698 E20.30965
G1 X36.34 Y83.25 E20.32549
G1 X36.481 Y82.887 E20.33844
G1 X36.845 Y82.06 E20.3685
G1 X37.281 Y81.269 E20.39854
G1 X37.829 Y80.46 E20.43104
G1 X38.066 Y80.144 E20.44417
G1 X38.639 Y79.446 E20.47421
G1 X39.272 Y78.802 E20.50424
G1 X39.87 Y78.287 E20.53049
G1 X40.057 Y78.138 E20.53845
G1 X40.787 Y77.607 E20.56847
G1 X41.203 Y77.346 E20.5848
G1 X41.405 Y77.226 E20.59262
G1 F2700 E15.59262
;MESH:Top.stl
G0 F6000 X46.09 Y85.519
G0 X46.676 Y86.308
G0 X47.315 Y86.161
G0 X47.974 Y86.032
;TYPE:WALL-OUTER
G1 F2700 E20.59262
G1 F1200 X47.536 Y86.205 E20.60828
G1 X47.406 Y86.28 E20.61327
G1 X46.833 Y86.699 E20.63688
G1 X46.736 Y86.81 E20.64179
G1 X46.29 Y87.351 E20.66511
G1 X45.992 Y87.981 E20.68829
G1 X45.992 Y87.305 E20.71077
G1 X46.037 Y86.962 E20.72228
G1 X46.164 Y86.657 E20.73326
G1 X46.363 Y86.399 E20.7441
G1 X46.615 Y86.205 E20.75468
G1 X46.922 Y86.077 E20.76574
G1 X47.265 Y86.032 E20.77725
G1 X47.974 Y86.032 E20.80083
G1 F2700 E15.80083
G0 F6000 X47.315 Y86.161
G0 X47.912 Y86.986
G0 X68.271 Y86.986
G0 X68.74 Y86.136
G0 X68.207 Y86.031
G1 F2700 E20.80083
G1 F1200 X68.917 Y86.031 E20.82444
G1 X69.262 Y86.077 E20.83602
G1 X69.567 Y86.204 E20.84701
G1 X69.825 Y86.403 E20.85785
G1 X70.019 Y86.655 E20.86842
G1 X70.147 Y86.962 E20.87949
G1 X70.192 Y87.305 E20.89099
G1 X70.192 Y87.981 E20.91348
G1 X69.894 Y87.351 E20.93666
G1 X69.357 Y86.7 E20.96472
G1 X68.782 Y86.283 E20.98835
G1 X68.652 Y86.206 E20.99337
G1 X68.207 Y86.031 E21.00928
G1 F2700 E16.00928
G0 F6000 X68.864 Y86.158
G0 X69.341 Y86.514
G0 X69.995 Y87.287
G0 X69.16 Y87.818
G0 X68.991 Y130.684
G0 X69.678 Y131.393
G0 X69.255 Y131.814
G0 X68.818 Y132.111
G0 X68.243 Y132.232
G1 F2700 E21.00928
G1 F1200 X68.332 Y132.209 E21.01234
G1 X69.072 Y131.801 E21.04044
G1 X69.592 Y131.311 E21.0642
G1 X69.689 Y131.198 E21.06916
G1 X70.069 Y130.596 E21.09284
G1 X70.193 Y130.238 E21.10544
G1 X70.193 Y130.957 E21.12935
G1 X70.147 Y131.301 E21.14089
G1 X70.019 Y131.608 E21.15196
G1 X69.821 Y131.865 E21.16275
G1 X69.569 Y132.059 E21.17333
G1 X69.262 Y132.187 E21.18439
G1 X68.919 Y132.232 E21.19589
G1 X68.243 Y132.232 E21.21838
G1 F2700 E16.21838
G0 F6000 X68.818 Y132.111
G0 X68.011 Y131.4
G0 X66.274 Y131.4
G0 X65.585 Y132.128
G0 X63.799 Y131.432
;TYPE:WALL-INNER
G1 F2700 E21.21838
G1 F1200 X63.435 Y131.432 E21.23048
G1 X52.749 Y131.432 E21.5859
G1 X52.748 Y131.432 E21.58594
G1 X52.388 Y131.432 E21.59791
G1 X52.58 Y131.127 E21.60465
G1 X52.687 Y130.957 E21.61133
G1 X52.776 Y130.725 E21.6196
G1 X53.03 Y129.935 E21.6472
G1 X53.082 Y129.112 E21.67463
G1 X53.083 Y128.861 E21.68297
G1 X52.922 Y128.027 E21.71123
G1 X52.841 Y127.792 E21.71949
G1 X52.474 Y127.019 E21.74795
G1 X51.809 Y126.212 E21.78273
G1 X51.122 Y125.713 E21.81097
G1 X50.904 Y125.584 E21.8194
G1 X50.109 Y125.273 E21.84779
G1 X50.072 Y125.267 E21.84904
G1 X49.877 Y125.231 E21.85563
G1 X49.864 Y125.228 E21.85608
G1 X49.042 Y125.124 E21.88364
G1 X48.229 Y125.227 E21.91089
G1 X47.985 Y125.267 E21.91912
G1 X47.189 Y125.583 E21.9476
G1 X47.188 Y125.583 E21.94763
G1 X46.969 Y125.708 E21.95602
G1 X46.792 Y125.837 E21.96331
G1 X46.792 Y125.708 E21.96356
G1 X46.792 Y125.583 E21.9648
G1 X46.792 Y125.581 E21.96487
G1 X46.792 Y92.761 E23.05646
G1 X46.792 Y92.467 E23.06624
G1 X46.792 Y92.437 E23.06724
G1 X46.842 Y92.467 E23.06796
G1 X47.099 Y92.608 E23.07403
G1 X47.557 Y92.859 E23.0914
G1 X48.366 Y93.067 E23.11919
G1 X48.612 Y93.112 E23.1275
G1 X49.461 Y93.111 E23.15574
G1 X49.706 Y93.071 E23.164
G1 X50.53 Y92.859 E23.1923
G1 X51.446 Y92.353 E23.2271
G1 X52.072 Y91.764 E23.25569
G1 X52.235 Y91.574 E23.26402
G1 X52.687 Y90.857 E23.29221
G1 X52.776 Y90.625 E23.30047
G1 X53.03 Y89.835 E23.32807
G1 X53.082 Y89.012 E23.3555
G1 X53.083 Y88.761 E23.36385
G1 X52.922 Y87.927 E23.3921
G1 X52.841 Y87.692 E23.40037
G1 X52.579 Y87.141 E23.42066
G1 X52.474 Y86.919 E23.42883
G1 X52.402 Y86.832 E23.43258
G1 X52.474 Y86.832
G1 X52.72 Y86.832 E23.43807
G1 X63.463 Y86.832 E23.79538
G1 X63.709 Y86.832 E23.80356
G1 X63.782 Y86.831 E23.80599
G1 X63.71 Y86.919 E23.80724
G1 X63.605 Y87.141 E23.8127
G1 X63.347 Y87.684 E23.8327
G1 X63.262 Y87.918 E23.84098
G1 X63.102 Y88.753 E23.86925
G1 X63.101 Y89.005 E23.87764
G1 X63.155 Y89.838 E23.9054
G1 X63.405 Y90.609 E23.93236
G1 X63.489 Y90.847 E23.94075
G1 X63.944 Y91.56 E23.96888
G1 X64.101 Y91.756 E23.97724
G1 X64.729 Y92.341 E24.00578
G1 X64.942 Y92.467 E24.01401
G1 X65.657 Y92.859 E24.04113
G1 X66.466 Y93.067 E24.06892
G1 X66.712 Y93.112 E24.07723
G1 X67.561 Y93.111 E24.10547
G1 X67.806 Y93.071 E24.11373
G1 X68.63 Y92.859 E24.14203
G1 X69.096 Y92.601 E24.15974
G1 X69.392 Y92.438 E24.17098
G1 X69.392 Y92.775 E24.17736
G1 X69.392 Y92.776 E24.17739
G1 X69.392 Y125.584 E25.26859
G1 X69.392 Y125.712 E25.27285
G1 X69.393 Y125.837 E25.27701
G1 X69.222 Y125.713 E25.28008
G1 X69.004 Y125.584 E25.28681
G1 X68.209 Y125.273 E25.31521
